;FLAVOR:Marlin
;TIME:1989
;Filament used: 0.887735m
;Layer height: 0.2
;MINX:105.271
;MINY:82.771
;MINZ:0.2
;MAXX:149.728
;MAXY:127.229
;MAXZ:34
;Generated with Cura_SteamEngine 4.13.0
M140 S60
M105
M190 S60
M104 S200
M105
M109 S200
M82 ;absolute extrusion mode
M220 S100 ;reset feedrate
M221 S100 ;reset flowrate
G90 ;use absolute coordinates
M82 ;absolute extrusion mode
G28 ;home
G1 Z2 F1500 ;raise z
G92 E0 ;reset extruder

G1 X75 Y5 F5000 ;start position
G1 Z0.28 F1500 ;lower z
G1 E4 F500 ;prime the filament
G1 X180 E10 F500 ;1st line
G1 Y5.4 F5000
G1 X75 E20 F500 ;2nd line
G1 Z2 F1500 ;raise z
G92 E0 ;reset extruder
G92 E0
G92 E0
G1 F1500 E-6.5
;LAYER_COUNT:170
;LAYER:0
M107
G0 F9000 X110.397 Y90.782 Z0.2
;TYPE:SKIRT
G1 F1500 E0
G1 F1800 X110.606 Y90.536 E0.01342
G1 X110.952 Y90.148 E0.03503
G1 X111.517 Y89.542 E0.06948
G1 X111.872 Y89.177 E0.09065
G1 X112.211 Y88.855 E0.11009
G1 X112.622 Y88.48 E0.13322
G1 X112.98 Y88.168 E0.15296
G1 X113.461 Y87.765 E0.17905
G1 X113.806 Y87.487 E0.19747
G1 X114.242 Y87.15 E0.22038
G1 X115.005 Y86.609 E0.25927
G1 X115.607 Y86.219 E0.28909
G1 X116.026 Y85.961 E0.30955
G1 X116.455 Y85.709 E0.33023
G1 X116.818 Y85.505 E0.34754
G1 X117.141 Y85.331 E0.3628
G1 X117.554 Y85.119 E0.3821
G1 X118.187 Y84.811 E0.41136
G1 X119.026 Y84.444 E0.44944
G1 X119.614 Y84.215 E0.47567
G1 X120.066 Y84.05 E0.49568
G1 X120.541 Y83.888 E0.51654
G1 X120.96 Y83.754 E0.53483
G1 X121.393 Y83.625 E0.55362
G1 X121.857 Y83.498 E0.57362
G1 X122.258 Y83.397 E0.59081
G1 X122.671 Y83.301 E0.60844
G1 X123.378 Y83.151 E0.63848
G1 X124.315 Y82.993 E0.67799
G1 X124.882 Y82.922 E0.70175
G1 X125.337 Y82.875 E0.72076
G1 X125.86 Y82.831 E0.74259
G1 X126.302 Y82.802 E0.761
G1 X126.706 Y82.784 E0.77781
G1 X127.164 Y82.773 E0.79686
G1 X127.69 Y82.771 E0.81873
G1 X128.156 Y82.779 E0.83811
G1 X128.555 Y82.794 E0.85471
G1 X129.008 Y82.82 E0.87357
G1 X129.712 Y82.875 E0.90293
G1 X130.649 Y82.988 E0.94217
G1 X131.237 Y83.084 E0.96694
G1 X131.673 Y83.164 E0.98537
G1 X132.168 Y83.265 E1.00637
G1 X132.631 Y83.37 E1.02611
G1 X133.106 Y83.488 E1.04646
G1 X133.551 Y83.608 E1.06562
G1 X134.194 Y83.796 E1.09347
G1 X135.058 Y84.087 E1.13137
G1 X135.544 Y84.273 E1.15301
G1 X135.971 Y84.447 E1.17218
G1 X136.561 Y84.701 E1.19889
G1 X136.953 Y84.879 E1.21678
G1 X137.488 Y85.134 E1.24142
G1 X138.327 Y85.578 E1.28089
G1 X139.105 Y86.033 E1.31836
G1 X139.895 Y86.54 E1.35739
G1 X140.41 Y86.902 E1.38356
G1 X140.747 Y87.148 E1.4009
G1 X141.13 Y87.439 E1.4209
G1 X141.493 Y87.727 E1.44017
G1 X141.851 Y88.023 E1.45948
G1 X142.223 Y88.344 E1.47991
G1 X142.595 Y88.68 E1.50075
G1 X142.903 Y88.97 E1.51834
G1 X143.133 Y89.194 E1.53168
G1 X143.464 Y89.53 E1.55129
G1 X143.853 Y89.942 E1.57485
G1 X144.179 Y90.302 E1.59504
G1 X144.443 Y90.607 E1.61181
G1 X144.74 Y90.965 E1.63115
G1 X145.005 Y91.298 E1.64885
G1 X145.274 Y91.65 E1.66727
G1 X145.593 Y92.085 E1.68969
G1 X145.835 Y92.428 E1.70714
G1 X146.022 Y92.704 E1.721
G1 X146.297 Y93.13 E1.74209
G1 X146.54 Y93.526 E1.7614
G1 X146.761 Y93.903 E1.77957
G1 X146.999 Y94.327 E1.79979
G1 X147.218 Y94.737 E1.81911
G1 X147.435 Y95.164 E1.83902
G1 X147.637 Y95.582 E1.85833
G1 X147.819 Y95.98 E1.87652
G1 X147.992 Y96.379 E1.8946
G1 X148.129 Y96.712 E1.90957
G1 X148.307 Y97.172 E1.93008
G1 X148.503 Y97.715 E1.95408
G1 X148.656 Y98.17 E1.97404
G1 X148.756 Y98.489 E1.98794
G1 X148.879 Y98.909 E2.00613
G1 X149.013 Y99.403 E2.02741
G1 X149.124 Y99.851 E2.0466
G1 X149.226 Y100.299 E2.0657
G1 X149.313 Y100.715 E2.08337
G1 X149.39 Y101.124 E2.10067
G1 X149.471 Y101.614 E2.12132
G1 X149.531 Y102.034 E2.13896
G1 X149.585 Y102.478 E2.15756
G1 X149.646 Y103.073 E2.18242
G1 X149.682 Y103.509 E2.20061
G1 X149.696 Y103.73 E2.20982
G1 X149.717 Y104.221 E2.23025
G1 X149.728 Y104.784 E2.25366
G1 X149.728 Y105.224 E2.27196
G1 X149.717 Y105.787 E2.29537
G1 X149.696 Y106.285 E2.31609
G1 X149.682 Y106.504 E2.32521
G1 X149.648 Y106.921 E2.34261
G1 X149.59 Y107.493 E2.36651
G1 X149.53 Y107.978 E2.38683
G1 X149.467 Y108.411 E2.40502
G1 X149.395 Y108.844 E2.42327
G1 X149.305 Y109.329 E2.44378
G1 X149.215 Y109.764 E2.46224
G1 X149.137 Y110.108 E2.47691
G1 X149.013 Y110.606 E2.49825
G1 X148.866 Y111.14 E2.52127
G1 X148.748 Y111.538 E2.53853
G1 X148.648 Y111.855 E2.55235
G1 X148.502 Y112.287 E2.57131
G1 X148.233 Y113.033 E2.60428
G1 X147.869 Y113.921 E2.64418
G1 X147.527 Y114.664 E2.67819
G1 X147.108 Y115.485 E2.71651
G1 X146.768 Y116.088 E2.74529
G1 X146.539 Y116.475 E2.76398
G1 X146.287 Y116.883 E2.78392
G1 X146.053 Y117.247 E2.80191
G1 X145.809 Y117.61 E2.8201
G1 X145.542 Y117.99 E2.8394
G1 X145.145 Y118.531 E2.8673
G1 X144.561 Y119.26 E2.90614
G1 X144.192 Y119.684 E2.92951
G1 X143.898 Y120.01 E2.94776
G1 X143.497 Y120.436 E2.97208
G1 X143.145 Y120.793 E2.99292
G1 X142.827 Y121.102 E3.01136
G1 X142.499 Y121.408 E3.03001
G1 X142.227 Y121.652 E3.0452
G1 X141.899 Y121.936 E3.06324
G1 X141.482 Y122.282 E3.08577
G1 X141.116 Y122.573 E3.10521
G1 X140.801 Y122.813 E3.12167
G1 X140.425 Y123.087 E3.14101
G1 X140.037 Y123.358 E3.16069
G1 X139.666 Y123.606 E3.17924
G1 X139.276 Y123.856 E3.1985
G1 X138.861 Y124.11 E3.21873
G1 X138.273 Y124.452 E3.24701
G1 X137.453 Y124.885 E3.28556
G1 X136.972 Y125.114 E3.30771
G1 X136.572 Y125.294 E3.32595
G1 X136.015 Y125.533 E3.35115
G1 X135.591 Y125.705 E3.37017
G1 X134.999 Y125.931 E3.39652
G1 X134.137 Y126.221 E3.43433
G1 X133.29 Y126.468 E3.47101
G1 X132.406 Y126.688 E3.50888
G1 X131.798 Y126.813 E3.53469
G1 X131.32 Y126.9 E3.55489
G1 X130.848 Y126.976 E3.57476
G1 X130.404 Y127.038 E3.5934
G1 X129.897 Y127.099 E3.61463
G1 X129.44 Y127.145 E3.63373
G1 X129.01 Y127.179 E3.65166
G1 X128.547 Y127.206 E3.67094
G1 X128.149 Y127.221 E3.6875
G1 X127.681 Y127.229 E3.70696
G1 X127.167 Y127.227 E3.72833
G1 X126.704 Y127.216 E3.74759
G1 X126.261 Y127.196 E3.76602
G1 X125.829 Y127.168 E3.78402
G1 X125.411 Y127.133 E3.80146
G1 X124.941 Y127.083 E3.82111
G1 X124.252 Y126.996 E3.84998
G1 X123.339 Y126.843 E3.88847
G1 X122.718 Y126.712 E3.91486
G1 X122.242 Y126.601 E3.93518
G1 X121.798 Y126.487 E3.95424
G1 X121.399 Y126.376 E3.97145
G1 X120.714 Y126.173 E4.00116
G1 X119.833 Y125.872 E4.03986
G1 X119.036 Y125.562 E4.07542
G1 X118.187 Y125.191 E4.11394
G1 X117.602 Y124.906 E4.14099
G1 X117.188 Y124.693 E4.16035
G1 X116.706 Y124.433 E4.18312
G1 X116.316 Y124.213 E4.20173
G1 X115.99 Y124.02 E4.21748
G1 X115.598 Y123.777 E4.23666
G1 X115.02 Y123.402 E4.2653
G1 X114.258 Y122.861 E4.30416
G1 X113.754 Y122.471 E4.33065
G1 X113.399 Y122.184 E4.34963
G1 X113.003 Y121.851 E4.37114
G1 X112.666 Y121.557 E4.38974
G1 X112.193 Y121.126 E4.41634
G1 X111.54 Y120.48 E4.45453
G1 X111.101 Y120.009 E4.4813
G1 X110.792 Y119.663 E4.50058
G1 X110.328 Y119.122 E4.53022
G1 X109.763 Y118.408 E4.56807
G1 X109.233 Y117.678 E4.60558
G1 X108.707 Y116.883 E4.64521
G1 X108.364 Y116.315 E4.67279
G1 X108.157 Y115.958 E4.68995
G1 X107.98 Y115.639 E4.70512
G1 X107.75 Y115.204 E4.72558
G1 X107.516 Y114.735 E4.74737
G1 X107.326 Y114.334 E4.76581
G1 X107.116 Y113.868 E4.78707
G1 X106.938 Y113.45 E4.80595
G1 X106.799 Y113.105 E4.82142
G1 X106.633 Y112.667 E4.84089
G1 X106.482 Y112.242 E4.85964
G1 X106.332 Y111.79 E4.87944
G1 X106.115 Y111.086 E4.91007
G1 X105.883 Y110.21 E4.94775
G1 X105.768 Y109.692 E4.96981
G1 X105.681 Y109.257 E4.98825
G1 X105.539 Y108.472 E5.02142
G1 X105.4 Y107.432 E5.06504
G1 X105.324 Y106.547 E5.10197
G1 X105.285 Y105.806 E5.13282
G1 X105.271 Y105.098 E5.16226
G1 X105.271 Y104.678 E5.17972
G1 X105.278 Y104.281 E5.19623
G1 X105.288 Y103.962 E5.2095
G1 X105.296 Y103.788 E5.21674
G1 X105.319 Y103.424 E5.2319
G1 X105.345 Y103.093 E5.24571
G1 X105.381 Y102.71 E5.2617
G1 X105.432 Y102.259 E5.28057
G1 X105.539 Y101.527 E5.31133
G1 X105.674 Y100.778 E5.34297
G1 X105.765 Y100.33 E5.36197
G1 X105.899 Y99.728 E5.38761
G1 X106.142 Y98.816 E5.42685
G1 X106.332 Y98.208 E5.45334
G1 X106.462 Y97.819 E5.47039
G1 X106.629 Y97.346 E5.49124
G1 X106.798 Y96.897 E5.51119
G1 X106.937 Y96.551 E5.52669
G1 X107.118 Y96.127 E5.54586
G1 X107.439 Y95.414 E5.57837
G1 X107.859 Y94.574 E5.61741
G1 X108.097 Y94.145 E5.63781
G1 X108.32 Y93.762 E5.65624
G1 X108.628 Y93.255 E5.6809
G1 X108.869 Y92.876 E5.69957
G1 X109.157 Y92.442 E5.72123
G1 X109.43 Y92.049 E5.74112
G1 X109.773 Y91.577 E5.76538
G1 X110.013 Y91.258 E5.78198
G1 X110.11 Y91.134 E5.78852
G1 X110.397 Y90.782 E5.8074
G0 F9000 X110.779 Y91.106
G1 F1800 X110.988 Y90.86 E5.82082
G1 X111.317 Y90.489 E5.84144
G1 X111.882 Y89.883 E5.87589
G1 X112.271 Y89.487 E5.89896
G1 X112.548 Y89.225 E5.91482
G1 X112.959 Y88.85 E5.93795
G1 X113.301 Y88.551 E5.95683
G1 X113.782 Y88.148 E5.98292
G1 X114.112 Y87.883 E6.00052
G1 X114.548 Y87.546 E6.02343
G1 X115.277 Y87.029 E6.06058
G1 X115.879 Y86.639 E6.09041
G1 X116.279 Y86.392 E6.10995
G1 X116.708 Y86.14 E6.13064
G1 X117.055 Y85.945 E6.14718
G1 X117.378 Y85.771 E6.16244
G1 X117.773 Y85.569 E6.18088
G1 X118.406 Y85.261 E6.21015
G1 X119.208 Y84.91 E6.24655
G1 X119.796 Y84.681 E6.27278
G1 X120.227 Y84.523 E6.29187
G1 X120.702 Y84.361 E6.31273
G1 X121.103 Y84.233 E6.33023
G1 X121.536 Y84.104 E6.34902
G1 X121.979 Y83.983 E6.36811
G1 X122.38 Y83.882 E6.3853
G1 X122.775 Y83.79 E6.40216
G1 X123.482 Y83.64 E6.43221
G1 X124.377 Y83.489 E6.46995
G1 X124.944 Y83.418 E6.4937
G1 X125.379 Y83.373 E6.51189
G1 X125.902 Y83.329 E6.53371
G1 X126.325 Y83.302 E6.55133
G1 X126.729 Y83.284 E6.56814
G1 X127.166 Y83.273 E6.58631
G1 X127.692 Y83.271 E6.60818
G1 X128.137 Y83.279 E6.62669
G1 X128.536 Y83.294 E6.64329
G1 X128.969 Y83.319 E6.66132
G1 X129.673 Y83.374 E6.69068
G1 X130.568 Y83.481 E6.72815
G1 X131.156 Y83.577 E6.75292
G1 X131.573 Y83.654 E6.77055
G1 X132.068 Y83.755 E6.79156
G1 X132.511 Y83.855 E6.81044
G1 X132.986 Y83.973 E6.83079
G1 X133.411 Y84.088 E6.84909
G1 X134.054 Y84.276 E6.87694
G1 X134.879 Y84.554 E6.91314
G1 X135.365 Y84.74 E6.93477
G1 X135.774 Y84.906 E6.95312
G1 X136.364 Y85.16 E6.97983
G1 X136.738 Y85.33 E6.99691
G1 X137.273 Y85.585 E7.02155
G1 X138.075 Y86.009 E7.05927
G1 X138.853 Y86.464 E7.09674
G1 X139.608 Y86.949 E7.13404
G1 X140.123 Y87.311 E7.16022
G1 X140.445 Y87.546 E7.17679
G1 X140.828 Y87.837 E7.19679
G1 X141.174 Y88.112 E7.21516
G1 X141.532 Y88.408 E7.23448
G1 X141.888 Y88.715 E7.25402
G1 X142.26 Y89.051 E7.27486
G1 X142.554 Y89.328 E7.29165
G1 X142.784 Y89.552 E7.305
G1 X143.1 Y89.873 E7.32373
G1 X143.489 Y90.285 E7.34729
G1 X143.801 Y90.63 E7.36663
G1 X144.065 Y90.935 E7.3834
G1 X144.349 Y91.276 E7.40185
G1 X144.614 Y91.609 E7.41954
G1 X144.871 Y91.946 E7.43716
G1 X145.19 Y92.381 E7.45959
G1 X145.421 Y92.708 E7.47623
G1 X145.608 Y92.984 E7.49009
G1 X145.87 Y93.392 E7.51025
G1 X146.113 Y93.788 E7.52957
G1 X146.325 Y94.148 E7.54694
G1 X146.563 Y94.572 E7.56715
G1 X146.772 Y94.964 E7.58562
G1 X146.989 Y95.391 E7.60553
G1 X147.182 Y95.79 E7.62396
G1 X147.364 Y96.188 E7.64216
G1 X147.53 Y96.569 E7.65944
G1 X147.667 Y96.902 E7.67441
G1 X147.836 Y97.342 E7.694
G1 X148.032 Y97.885 E7.718
G1 X148.179 Y98.319 E7.73705
G1 X148.279 Y98.638 E7.75095
G1 X148.396 Y99.04 E7.76836
G1 X148.53 Y99.534 E7.78964
G1 X148.637 Y99.962 E7.80798
G1 X148.739 Y100.41 E7.82708
G1 X148.821 Y100.807 E7.84394
G1 X148.898 Y101.216 E7.86124
G1 X148.976 Y101.685 E7.88101
G1 X149.036 Y102.105 E7.89865
G1 X149.088 Y102.529 E7.91641
G1 X149.149 Y103.124 E7.94127
G1 X149.183 Y103.54 E7.95862
G1 X149.197 Y103.761 E7.96783
G1 X149.217 Y104.231 E7.98739
G1 X149.228 Y104.794 E8.0108
G1 X149.228 Y105.214 E8.02826
G1 X149.217 Y105.777 E8.05167
G1 X149.197 Y106.253 E8.07148
G1 X149.183 Y106.472 E8.0806
G1 X149.15 Y106.87 E8.09721
G1 X149.092 Y107.442 E8.12111
G1 X149.035 Y107.906 E8.14055
G1 X148.972 Y108.339 E8.15874
G1 X148.904 Y108.752 E8.17614
G1 X148.814 Y109.237 E8.19665
G1 X148.728 Y109.653 E8.21431
G1 X148.65 Y109.997 E8.22897
G1 X148.53 Y110.473 E8.24938
G1 X148.383 Y111.007 E8.27241
G1 X148.271 Y111.388 E8.28892
G1 X148.171 Y111.705 E8.30274
G1 X148.032 Y112.118 E8.32086
G1 X147.763 Y112.864 E8.35383
G1 X147.415 Y113.712 E8.39194
G1 X147.073 Y114.455 E8.42594
G1 X146.672 Y115.24 E8.46259
G1 X146.332 Y115.843 E8.49137
G1 X146.114 Y116.212 E8.50919
G1 X145.862 Y116.62 E8.52913
G1 X145.638 Y116.968 E8.54633
G1 X145.394 Y117.331 E8.56452
G1 X145.139 Y117.694 E8.58296
G1 X144.742 Y118.235 E8.61086
G1 X144.184 Y118.932 E8.64798
G1 X143.815 Y119.356 E8.67135
G1 X143.534 Y119.667 E8.68877
G1 X143.133 Y120.093 E8.7131
G1 X142.797 Y120.435 E8.73303
G1 X142.479 Y120.744 E8.75146
G1 X142.165 Y121.036 E8.76929
G1 X141.893 Y121.28 E8.78448
G1 X141.579 Y121.551 E8.80173
G1 X141.162 Y121.897 E8.82425
G1 X140.813 Y122.175 E8.8428
G1 X140.498 Y122.415 E8.85927
G1 X140.139 Y122.677 E8.87775
G1 X139.751 Y122.948 E8.89742
G1 X139.396 Y123.185 E8.91517
G1 X139.006 Y123.435 E8.93443
G1 X138.61 Y123.677 E8.95372
G1 X138.022 Y124.019 E8.982
G1 X137.238 Y124.433 E9.01886
G1 X136.757 Y124.662 E9.04101
G1 X136.375 Y124.835 E9.05845
G1 X135.818 Y125.074 E9.08365
G1 X135.413 Y125.238 E9.10181
G1 X134.821 Y125.464 E9.12816
G1 X133.997 Y125.741 E9.1643
G1 X133.15 Y125.988 E9.20098
G1 X132.305 Y126.198 E9.23718
G1 X131.697 Y126.323 E9.26299
G1 X131.241 Y126.406 E9.28226
G1 X130.769 Y126.482 E9.30213
G1 X130.344 Y126.542 E9.31998
G1 X129.837 Y126.603 E9.34121
G1 X129.4 Y126.647 E9.35947
G1 X128.97 Y126.681 E9.3774
G1 X128.528 Y126.706 E9.39581
G1 X128.13 Y126.721 E9.41236
G1 X127.683 Y126.729 E9.43095
G1 X127.169 Y126.727 E9.45232
G1 X126.726 Y126.716 E9.47075
G1 X126.283 Y126.696 E9.48918
G1 X125.871 Y126.67 E9.50634
G1 X125.453 Y126.635 E9.52378
G1 X125.003 Y126.587 E9.5426
G1 X124.314 Y126.5 E9.57147
G1 X123.442 Y126.354 E9.60823
G1 X122.821 Y126.223 E9.63462
G1 X122.367 Y126.116 E9.65401
G1 X121.923 Y126.002 E9.67307
G1 X121.542 Y125.897 E9.6895
G1 X120.857 Y125.694 E9.7192
G1 X120.014 Y125.406 E9.75624
G1 X119.217 Y125.096 E9.79179
G1 X118.406 Y124.741 E9.8286
G1 X117.821 Y124.456 E9.85565
G1 X117.425 Y124.253 E9.87415
G1 X116.943 Y123.993 E9.89692
G1 X116.571 Y123.782 E9.9147
G1 X116.245 Y123.589 E9.93045
G1 X115.87 Y123.357 E9.94879
G1 X115.292 Y122.982 E9.97743
G1 X114.564 Y122.466 E10.01453
G1 X114.06 Y122.076 E10.04102
G1 X113.72 Y121.802 E10.05918
G1 X113.324 Y121.469 E10.08069
G1 X113.003 Y121.187 E10.09845
G1 X112.53 Y120.756 E10.12506
G1 X111.906 Y120.14 E10.16151
G1 X111.467 Y119.669 E10.18828
G1 X111.171 Y119.337 E10.20677
G1 X110.707 Y118.796 E10.23641
G1 X110.168 Y118.114 E10.27255
G1 X109.638 Y117.384 E10.31005
G1 X109.135 Y116.625 E10.34791
G1 X108.792 Y116.057 E10.37549
G1 X108.594 Y115.716 E10.39189
G1 X108.417 Y115.397 E10.40705
G1 X108.198 Y114.98 E10.42664
G1 X107.964 Y114.511 E10.44843
G1 X107.782 Y114.129 E10.46602
G1 X107.572 Y113.663 E10.48727
G1 X107.402 Y113.263 E10.50534
G1 X107.263 Y112.918 E10.5208
G1 X107.104 Y112.5 E10.5394
G1 X106.953 Y112.075 E10.55815
G1 X106.81 Y111.643 E10.57707
G1 X106.593 Y110.939 E10.6077
G1 X106.372 Y110.102 E10.64369
G1 X106.257 Y109.584 E10.66575
G1 X106.173 Y109.168 E10.68339
G1 X106.031 Y108.383 E10.71656
G1 X105.898 Y107.389 E10.75825
G1 X105.822 Y106.504 E10.79518
G1 X105.785 Y105.797 E10.82461
G1 X105.771 Y105.089 E10.85406
G1 X105.771 Y104.686 E10.87081
G1 X105.778 Y104.289 E10.88732
G1 X105.787 Y103.985 E10.89996
G1 X105.795 Y103.811 E10.9072
G1 X105.817 Y103.463 E10.9217
G1 X105.843 Y103.132 E10.9355
G1 X105.878 Y102.766 E10.95079
G1 X105.929 Y102.315 E10.96966
G1 X106.031 Y101.616 E10.99903
G1 X106.166 Y100.867 E11.03067
G1 X106.253 Y100.438 E11.04887
G1 X106.387 Y99.836 E11.07451
G1 X106.619 Y98.966 E11.11194
G1 X106.809 Y98.358 E11.13843
G1 X106.933 Y97.985 E11.15477
G1 X107.1 Y97.512 E11.17562
G1 X107.262 Y97.084 E11.19465
G1 X107.401 Y96.738 E11.21015
G1 X107.574 Y96.332 E11.2285
G1 X107.895 Y95.619 E11.26101
G1 X108.297 Y94.817 E11.29831
G1 X108.535 Y94.388 E11.3187
G1 X108.747 Y94.022 E11.33629
G1 X109.055 Y93.515 E11.36095
G1 X109.286 Y93.152 E11.37884
G1 X109.574 Y92.718 E11.4005
G1 X109.835 Y92.342 E11.41953
G1 X110.178 Y91.87 E11.44378
G1 X110.407 Y91.567 E11.45957
G1 X110.504 Y91.443 E11.46612
G1 X110.779 Y91.106 E11.4842
G0 F9000 X111.16 Y91.429
G1 F1800 X111.369 Y91.183 E11.49762
G1 X111.683 Y90.83 E11.51726
G1 X112.248 Y90.224 E11.55171
