;FLAVOR:Marlin
;TIME:4801
;Filament used: 3.68177m
;Layer height: 0.2
;MINX:11.483
;MINY:24.059
;MINZ:0.2
;MAXX:236.591
;MAXY:190.239
;MAXZ:19.6
;Generated with Cura_SteamEngine 4.13.0
M140 S60
M105
M190 S60
M104 S200
M105
M109 S200
M82 ;absolute extrusion mode
M220 S100 ;reset feedrate
M221 S100 ;reset flowrate
G90 ;use absolute coordinates
M82 ;absolute extrusion mode
G28 ;home
G1 Z2 F1500 ;raise z
G92 E0 ;reset extruder

G1 X75 Y5 F5000 ;start position
G1 Z0.28 F1500 ;lower z
G1 E4 F500 ;prime the filament
G1 X180 E10 F500 ;1st line
G1 Y5.4 F5000
G1 X75 E20 F500 ;2nd line
G1 Z2 F1500 ;raise z
G92 E0 ;reset extruder
G92 E0
G92 E0
G1 F1500 E-6.5
;LAYER_COUNT:100
;LAYER:0
M107
G0 F9000 X19.515 Y75.921 Z0.2
;TYPE:SKIRT
G1 F1500 E0
G1 F1800 X20.499 Y75.674 E0.04218
G1 X20.851 Y75.602 E0.05712
G1 X23.439 Y75.042 E0.1672
G1 X25.815 Y74.458 E0.26893
G1 X28.304 Y73.769 E0.3763
G1 X30.65 Y73.049 E0.47832
G1 X33.076 Y72.227 E0.58482
G1 X35.378 Y71.375 E0.68687
G1 X37.738 Y70.424 E0.79265
G1 X40.046 Y69.417 E0.89734
G1 X42.297 Y68.359 E1.00075
G1 X44.549 Y67.222 E1.10563
G1 X46.774 Y66.018 E1.21081
G1 X48.913 Y64.78 E1.31356
G1 X51.065 Y63.453 E1.41868
G1 X53.137 Y62.092 E1.52174
G1 X55.234 Y60.631 E1.628
G1 X57.245 Y59.142 E1.73203
G1 X59.218 Y57.591 E1.83637
G1 X61.117 Y56.011 E1.93907
G1 X63.056 Y54.303 E2.0465
G1 X64.725 Y52.75 E2.14129
G1 X66.059 Y51.478 E2.21792
G1 X67.058 Y50.553 E2.27452
G1 X68.333 Y49.407 E2.3458
G1 X69.364 Y48.509 E2.40264
G1 X70.608 Y47.457 E2.47037
G1 X71.687 Y46.572 E2.52839
G1 X72.955 Y45.563 E2.59576
G1 X74.005 Y44.753 E2.6509
G1 X75.229 Y43.836 E2.71448
G1 X76.35 Y43.021 E2.7721
G1 X76.488 Y42.922 E2.77916
G1 X77.725 Y42.052 E2.84204
G1 X78.981 Y41.196 E2.90523
G1 X80.158 Y40.419 E2.96387
G1 X81.375 Y39.641 E3.02392
G1 X82.812 Y38.752 E3.09417
G1 X82.963 Y38.66 E3.10152
G1 X84.02 Y38.03 E3.15268
G1 X85.5 Y37.176 E3.22372
G1 X86.573 Y36.578 E3.27479
G1 X88.192 Y35.707 E3.35122
G1 X89.292 Y35.137 E3.40273
G1 X90.916 Y34.325 E3.47822
G1 X92.073 Y33.77 E3.53157
G1 X93.652 Y33.04 E3.60389
G1 X94.898 Y32.488 E3.66055
G1 X96.441 Y31.83 E3.73029
G1 X97.679 Y31.324 E3.78589
G1 X99.278 Y30.698 E3.85729
G1 X100.446 Y30.261 E3.90913
G1 X101.947 Y29.724 E3.97541
G1 X103.356 Y29.244 E4.0373
G1 X105.014 Y28.707 E4.10975
G1 X106.257 Y28.326 E4.16381
G1 X107.891 Y27.85 E4.23456
G1 X109.144 Y27.506 E4.28858
G1 X110.607 Y27.126 E4.35143
G1 X112.005 Y26.785 E4.41125
G1 X113.549 Y26.432 E4.4771
G1 X114.942 Y26.135 E4.53632
G1 X115.11 Y26.1 E4.54345
G1 X116.724 Y25.784 E4.61183
G1 X117.952 Y25.563 E4.6637
G1 X119.722 Y25.27 E4.73829
G1 X120.902 Y25.093 E4.7879
G1 X122.686 Y24.853 E4.86274
G1 X124.057 Y24.689 E4.92014
G1 X125.568 Y24.531 E4.98331
G1 X127.042 Y24.398 E5.04484
G1 X128.516 Y24.288 E5.10629
G1 X130.142 Y24.192 E5.17401
G1 X131.719 Y24.123 E5.23964
G1 X133.154 Y24.081 E5.29932
G1 X134.777 Y24.059 E5.3668
G1 X136.18 Y24.061 E5.42513
G1 X137.785 Y24.087 E5.49187
G1 X139.008 Y24.124 E5.54274
G1 X140.69 Y24.2 E5.61274
G1 X142.219 Y24.292 E5.67642
G1 X143.888 Y24.42 E5.74602
G1 X145.209 Y24.54 E5.80116
G1 X146.906 Y24.72 E5.87211
G1 X148.022 Y24.855 E5.91885
G1 X149.782 Y25.094 E5.99269
G1 X151.212 Y25.31 E6.05282
G1 X152.71 Y25.559 E6.11595
G1 X154.217 Y25.833 E6.17963
G1 X155.698 Y26.125 E6.24239
G1 X157.177 Y26.44 E6.30526
G1 X158.657 Y26.778 E6.36838
G1 X159.892 Y27.079 E6.42123
G1 X161.563 Y27.513 E6.493
G1 X162.919 Y27.886 E6.55147
G1 X163.086 Y27.933 E6.55869
G1 X164.642 Y28.39 E6.62611
G1 X165.95 Y28.795 E6.68304
G1 X167.538 Y29.313 E6.75248
G1 X168.821 Y29.753 E6.80887
G1 X170.334 Y30.297 E6.87572
G1 X171.501 Y30.735 E6.92754
G1 X173.228 Y31.414 E7.00469
G1 X174.509 Y31.941 E7.06228
G1 X175.865 Y32.521 E7.1236
G1 X177.246 Y33.137 E7.18646
G1 X178.628 Y33.778 E7.2498
G1 X179.992 Y34.435 E7.31274
G1 X181.345 Y35.112 E7.37564
G1 X182.544 Y35.735 E7.43182
G1 X183.957 Y36.494 E7.49851
G1 X185.251 Y37.215 E7.56009
G1 X185.398 Y37.298 E7.56711
G1 X186.599 Y37.992 E7.62478
G1 X188.001 Y38.831 E7.69271
G1 X189.357 Y39.672 E7.75905
G1 X190.554 Y40.439 E7.81815
G1 X191.749 Y41.228 E7.87768
G1 X192.914 Y42.022 E7.9363
G1 X194.258 Y42.966 E8.00458
G1 X195.36 Y43.766 E8.0612
G1 X196.734 Y44.796 E8.13259
G1 X197.921 Y45.715 E8.195
G1 X199.088 Y46.647 E8.25709
G1 X200.254 Y47.606 E8.31986
G1 X201.431 Y48.605 E8.38405
G1 X202.547 Y49.581 E8.44568
G1 X203.684 Y50.606 E8.50933
G1 X204.649 Y51.501 E8.56405
G1 X205.924 Y52.719 E8.63736
G1 X206.052 Y52.843 E8.64476
G1 X206.971 Y53.752 E8.6985
G1 X208.134 Y54.936 E8.76751
G1 X208.949 Y55.789 E8.81655
G1 X210.104 Y57.034 E8.88716
G1 X211.007 Y58.035 E8.94321
G1 X212.115 Y59.303 E9.01321
G1 X212.947 Y60.285 E9.06672
G1 X214.079 Y61.66 E9.14077
G1 X214.185 Y61.79 E9.14775
G1 X215.02 Y62.839 E9.20349
G1 X215.892 Y63.967 E9.26276
G1 X216.765 Y65.132 E9.32329
G1 X217.776 Y66.523 E9.39478
G1 X218.578 Y67.666 E9.45283
G1 X219.419 Y68.901 E9.51495
G1 X220.278 Y70.204 E9.57984
G1 X221.161 Y71.588 E9.64809
G1 X221.756 Y72.55 E9.69512
G1 X222.633 Y74.016 E9.76614
G1 X222.722 Y74.167 E9.77343
G1 X223.423 Y75.384 E9.83182
G1 X224.155 Y76.699 E9.89439
G1 X224.875 Y78.04 E9.95767
G1 X225.647 Y79.532 E10.02751
G1 X226.246 Y80.732 E10.08327
G1 X226.974 Y82.248 E10.15319
G1 X227.49 Y83.364 E10.20431
G1 X228.156 Y84.86 E10.27239
G1 X228.682 Y86.093 E10.32812
G1 X229.318 Y87.644 E10.39781
G1 X229.801 Y88.869 E10.45256
G1 X229.865 Y89.035 E10.45996
G1 X230.474 Y90.662 E10.53218
G1 X230.927 Y91.934 E10.58832
G1 X231.45 Y93.469 E10.65574
G1 X231.858 Y94.731 E10.71088
G1 X232.359 Y96.362 E10.78182
G1 X232.751 Y97.711 E10.84022
G1 X233.178 Y99.267 E10.90731
G1 X233.539 Y100.66 E10.96713
G1 X233.871 Y102.021 E11.02538
G1 X234.175 Y103.348 E11.08198
G1 X234.529 Y105.013 E11.15275
G1 X234.8 Y106.387 E11.21097
G1 X234.833 Y106.56 E11.21829
G1 X235.12 Y108.154 E11.28563
G1 X235.349 Y109.541 E11.34407
G1 X235.584 Y111.113 E11.41016
G1 X235.77 Y112.492 E11.46801
G1 X235.963 Y114.11 E11.53575
G1 X236.095 Y115.379 E11.5888
G1 X236.256 Y117.18 E11.66397
G1 X236.35 Y118.437 E11.71638
G1 X236.452 Y120.148 E11.78764
G1 X236.507 Y121.367 E11.83837
G1 X236.557 Y123.021 E11.90717
G1 X236.584 Y124.69 E11.97657
G1 X236.591 Y125.545 E12.01211
G1 X236.59 Y125.787 E12.02218
G1 X236.581 Y126.444 E12.04949
G1 X236.528 Y127.391 E12.08893
G1 X236.395 Y128.33 E12.12835
G1 X236.184 Y129.255 E12.1678
G1 X235.896 Y130.159 E12.20724
G1 X235.533 Y131.035 E12.24667
G1 X235.097 Y131.877 E12.28609
G1 X234.591 Y132.68 E12.32555
G1 X234.02 Y133.437 E12.36497
G1 X233.387 Y134.143 E12.40439
G1 X232.697 Y134.794 E12.44383
G1 X231.955 Y135.384 E12.48325
G1 X231.165 Y135.91 E12.5227
G1 X230.334 Y136.367 E12.56213
G1 X229.468 Y136.752 E12.60153
G1 X228.572 Y137.063 E12.64097
G1 X227.576 Y137.314 E12.68367
G1 X227.218 Y137.387 E12.69886
G1 X224.639 Y137.945 E12.80856
G1 X222.249 Y138.533 E12.91089
G1 X219.789 Y139.214 E13.01701
G1 X217.397 Y139.948 E13.12104
G1 X215.018 Y140.754 E13.22547
G1 X212.659 Y141.627 E13.33004
G1 X210.346 Y142.559 E13.43372
G1 X208.019 Y143.574 E13.53927
G1 X205.775 Y144.629 E13.64236
G1 X203.521 Y145.767 E13.74734
G1 X201.328 Y146.954 E13.85101
G1 X199.133 Y148.223 E13.95642
G1 X197.012 Y149.531 E14.06002
G1 X194.89 Y150.924 E14.16555
G1 X192.848 Y152.348 E14.26905
G1 X190.838 Y153.837 E14.37305
G1 X188.852 Y155.398 E14.47807
G1 X186.953 Y156.978 E14.58078
G1 X185.038 Y158.665 E14.68688
G1 X182.992 Y160.579 E14.80336
G1 X182.46 Y161.092 E14.83409
G1 X181.376 Y162.107 E14.89583
G1 X180.28 Y163.103 E14.9574
G1 X179.258 Y164.005 E15.01407
G1 X177.988 Y165.094 E15.08363
G1 X176.998 Y165.918 E15.13718
G1 X175.62 Y167.029 E15.21077
G1 X174.598 Y167.83 E15.26475
G1 X173.314 Y168.804 E15.33176
G1 X172.201 Y169.624 E15.38923
G1 X170.804 Y170.619 E15.46054
G1 X169.73 Y171.362 E15.51483
G1 X169.585 Y171.461 E15.52213
G1 X168.227 Y172.366 E15.58998
G1 X167.039 Y173.133 E15.64877
G1 X165.689 Y173.977 E15.71496
G1 X164.66 Y174.6 E15.76498
G1 X163.215 Y175.446 E15.83459
G1 X162.063 Y176.099 E15.88964
G1 X161.906 Y176.187 E15.89713
G1 X160.537 Y176.933 E15.96195
G1 X159.243 Y177.614 E16.02274
G1 X157.765 Y178.363 E16.09163
G1 X156.683 Y178.893 E16.14172
G1 X155.231 Y179.578 E16.20847
G1 X153.93 Y180.169 E16.26787
G1 X152.474 Y180.805 E16.33393
G1 X152.311 Y180.875 E16.34131
G1 X151.203 Y181.337 E16.39122
G1 X149.484 Y182.023 E16.46816
G1 X148.249 Y182.496 E16.52315
G1 X146.824 Y183.018 E16.58624
G1 X145.374 Y183.524 E16.65009
G1 X144.012 Y183.978 E16.70978
G1 X142.686 Y184.398 E16.76761
G1 X141.119 Y184.87 E16.83565
G1 X140.956 Y184.918 E16.84271
G1 X139.818 Y185.241 E16.89189
G1 X137.994 Y185.728 E16.97038
G1 X136.756 Y186.039 E17.02345
G1 X135.088 Y186.431 E17.09469
G1 X133.747 Y186.725 E17.15176
G1 X132.212 Y187.039 E17.2169
G1 X130.34 Y187.394 E17.29612
G1 X127.869 Y187.899 E17.40097
G1 X125.445 Y188.465 E17.50446
G1 X121.912 Y189.42 E17.65662
G1 X120.687 Y189.778 E17.70968
G1 X119.766 Y190.005 E17.74912
G1 X118.829 Y190.154 E17.78856
G1 X117.874 Y190.224 E17.82837
G1 X117.544 Y190.234 E17.8421
G1 X117.203 Y190.239 E17.85628
G1 X108.479 Y190.238 E18.21898
G1 X107.779 Y190.228 E18.24808
G1 X106.832 Y190.174 E18.28752
G1 X105.893 Y190.041 E18.32695
G1 X105.09 Y189.862 E18.36115
G1 X104.718 Y189.761 E18.37718
G1 X102.235 Y189.04 E18.48467
G1 X99.809 Y188.409 E18.58889
G1 X97.382 Y187.851 E18.69243
G1 X95.095 Y187.395 E18.78938
G1 X94.977 Y187.366 E18.79443
G1 X93.073 Y187.004 E18.87501
G1 X91.562 Y186.692 E18.93916
G1 X90.377 Y186.431 E18.9896
G1 X88.716 Y186.041 E19.06054
G1 X88.535 Y185.997 E19.06828
G1 X87.316 Y185.688 E19.12056
G1 X85.647 Y185.241 E19.1924
G1 X84.509 Y184.918 E19.24158
G1 X82.932 Y184.445 E19.31003
G1 X81.623 Y184.033 E19.36708
G1 X80.091 Y183.524 E19.4342
G1 X78.641 Y183.018 E19.49805
G1 X77.216 Y182.496 E19.56114
G1 X75.803 Y181.954 E19.62406
G1 X74.284 Y181.346 E19.69209
G1 X73.167 Y180.88 E19.74241
G1 X71.519 Y180.162 E19.81714
G1 X70.275 Y179.598 E19.87393
G1 X68.902 Y178.951 E19.93703
G1 X67.555 Y178.291 E19.99939
G1 X66.222 Y177.614 E20.06155
G1 X64.926 Y176.932 E20.12244
G1 X63.556 Y176.185 E20.18731
G1 X62.391 Y175.527 E20.24294
G1 X60.948 Y174.684 E20.31242
G1 X59.817 Y174.001 E20.36735
G1 X58.388 Y173.108 E20.43741
G1 X57.247 Y172.372 E20.49386
G1 X55.882 Y171.462 E20.56206
G1 X55.74 Y171.366 E20.56919
G1 X54.636 Y170.603 E20.62498
G1 X53.423 Y169.74 E20.68688
G1 X52.151 Y168.804 E20.75253
G1 X50.868 Y167.831 E20.81948
G1 X49.967 Y167.126 E20.86704
G1 X48.467 Y165.918 E20.94711
G1 X47.477 Y165.094 E21.00067
G1 X46.205 Y164.003 E21.07034
G1 X45.202 Y163.117 E21.12598
G1 X43.959 Y161.987 E21.19582
G1 X42.977 Y161.065 E21.25182
G1 X41.915 Y160.041 E21.31315
G1 X40.963 Y159.096 E21.36892
G1 X39.639 Y157.74 E21.44771
G1 X38.739 Y156.788 E21.50218
G1 X37.627 Y155.579 E21.57047
G1 X36.696 Y154.534 E21.62866
G1 X35.64 Y153.314 E21.69574
G1 X34.762 Y152.268 E21.75252
G1 X33.724 Y150.994 E21.82084
G1 X32.841 Y149.877 E21.88004
G1 X31.877 Y148.618 E21.94596
G1 X31.059 Y147.516 E22.00302
G1 X30.191 Y146.312 E22.06473
G1 X29.294 Y145.029 E22.12982
G1 X28.489 Y143.84 E22.18951
G1 X27.634 Y142.536 E22.25434
G1 X26.863 Y141.322 E22.31413
G1 X26.063 Y140.017 E22.37777
G1 X25.202 Y138.566 E22.44792
G1 X24.529 Y137.389 E22.50429
G1 X23.722 Y135.928 E22.57368
G1 X23.158 Y134.873 E22.62341
G1 X22.348 Y133.301 E22.69694
G1 X21.729 Y132.055 E22.75478
G1 X21.014 Y130.556 E22.82383
G1 X20.433 Y129.289 E22.88178
G1 X19.802 Y127.861 E22.94668
G1 X19.258 Y126.576 E23.0047
G1 X18.622 Y125.01 E23.07497
G1 X18.13 Y123.745 E23.1314
G1 X17.567 Y122.232 E23.19852
G1 X17.123 Y120.983 E23.25363
G1 X16.563 Y119.334 E23.32603
G1 X16.153 Y118.059 E23.38171
G1 X15.735 Y116.696 E23.44098
G1 X15.347 Y115.364 E23.49866
G1 X15.299 Y115.195 E23.50597
G1 X14.844 Y113.53 E23.57773
G1 X14.532 Y112.315 E23.62988
G1 X14.12 Y110.614 E23.70265
G1 X13.87 Y109.507 E23.74983
G1 X13.494 Y107.728 E23.82543
G1 X13.275 Y106.611 E23.87275
G1 X12.939 Y104.75 E23.95137
G1 X12.712 Y103.368 E24.0096
G1 X12.486 Y101.852 E24.07332
G1 X12.322 Y100.638 E24.12425
G1 X12.099 Y98.775 E24.20226
G1 X11.979 Y97.622 E24.25046
G1 X11.815 Y95.784 E24.32717
G1 X11.719 Y94.479 E24.38158
G1 X11.62 Y92.808 E24.45117
G1 X11.567 Y91.632 E24.50011
G1 X11.512 Y89.743 E24.57868
G1 X11.488 Y88.092 E24.64733
G1 X11.483 Y87.463 E24.67348
G1 X11.484 Y87.208 E24.68408
G1 X11.494 Y86.532 E24.71219
G1 X11.548 Y85.585 E24.75163
G1 X11.682 Y84.646 E24.79106
G1 X11.894 Y83.721 E24.83051
G1 X12.183 Y82.818 E24.86993
G1 X12.548 Y81.942 E24.90939
G1 X12.984 Y81.1 E24.94881
G1 X13.491 Y80.298 E24.98826
G1 X14.063 Y79.542 E25.02767
G1 X14.696 Y78.836 E25.06709
G1 X15.387 Y78.186 E25.10653
G1 X16.13 Y77.597 E25.14595
G1 X16.92 Y77.072 E25.18539
G1 X17.752 Y76.616 E25.22483
G1 X18.619 Y76.231 E25.26427
G1 X19.515 Y75.921 E25.30369
G0 F9000 X19.96 Y76.315
G1 F1800 X20.599 Y76.164 E25.33099
G1 X20.975 Y76.087 E25.34695
G1 X23.527 Y75.535 E25.4555
G1 X25.954 Y74.938 E25.55941
G1 X28.437 Y74.251 E25.66652
G1 X30.83 Y73.516 E25.7706
G1 X33.188 Y72.718 E25.87409
G1 X35.601 Y71.825 E25.98106
G1 X37.916 Y70.892 E26.08483
G1 X40.265 Y69.867 E26.19138
G1 X42.526 Y68.805 E26.29524
G1 X44.775 Y67.668 E26.40001
G1 X46.984 Y66.473 E26.50443
G1 X49.19 Y65.197 E26.61038
G1 X51.35 Y63.865 E26.71588
G1 X53.404 Y62.516 E26.81805
G1 X55.517 Y61.042 E26.92516
G1 X57.539 Y59.545 E27.02976
G1 X59.547 Y57.968 E27.13591
G1 X61.472 Y56.366 E27.24003
G1 X63.354 Y54.708 E27.34431
G1 X65.136 Y53.049 E27.44553
G1 X66.399 Y51.845 E27.51808
G1 X67.392 Y50.925 E27.57436
G1 X68.535 Y49.896 E27.6383
G1 X69.57 Y48.992 E27.69543
G1 X70.799 Y47.949 E27.76245
G1 X70.925 Y47.843 E27.76929
G1 X71.999 Y46.963 E27.82702
G1 X73.261 Y45.959 E27.89406
G1 X74.304 Y45.154 E27.94884
G1 X75.657 Y44.142 E28.01909
G1 X76.776 Y43.331 E28.07654
G1 X78.144 Y42.37 E28.14605
G1 X79.256 Y41.614 E28.20195
G1 X80.571 Y40.747 E28.26744
G1 X81.781 Y39.976 E28.32709
G1 X83.075 Y39.177 E28.39031
G1 X84.276 Y38.46 E28.44847
G1 X85.603 Y37.693 E28.51219
G1 X86.817 Y37.015 E28.57
G1 X88.275 Y36.229 E28.63886
G1 X88.422 Y36.151 E28.64578
G1 X89.66 Y35.511 E28.70372
G1 X91.133 Y34.776 E28.77217
G1 X92.283 Y34.224 E28.8252
G1 X93.855 Y33.497 E28.89721
G1 X95.094 Y32.948 E28.95355
G1 X96.631 Y32.293 E29.02301
G1 X97.862 Y31.79 E29.0783
G1 X99.453 Y31.166 E29.14935
G1 X100.461 Y30.788 E29.19411
G1 X102.116 Y30.195 E29.2672
G1 X103.366 Y29.768 E29.32211
G1 X105.001 Y29.236 E29.3936
G1 X105.161 Y29.185 E29.40058
G1 X106.397 Y28.806 E29.45433
G1 X108.023 Y28.332 E29.52474
G1 X109.269 Y27.99 E29.57846
G1 X110.732 Y27.61 E29.6413
G1 X112.277 Y27.234 E29.70741
G1 X113.66 Y26.919 E29.76638
G1 X115.046 Y26.624 E29.8253
G1 X116.657 Y26.306 E29.89357
G1 X116.813 Y26.276 E29.90017
G1 X118.034 Y26.056 E29.95175
G1 X119.796 Y25.765 E30.026
G1 X121.136 Y25.565 E30.08233
G1 X122.746 Y25.349 E30.14986
G1 X124.109 Y25.186 E30.20693
G1 X125.62 Y25.028 E30.2701
G1 X127.079 Y24.897 E30.331
G1 X128.72 Y24.776 E30.39941
G1 X130.164 Y24.692 E30.45955
G1 X131.734 Y24.623 E30.52488
G1 X133.161 Y24.581 E30.58423
G1 X134.777 Y24.559 E30.65143
G1 X136.173 Y24.561 E30.70947
G1 X137.77 Y24.587 E30.77587
G1 X139.159 Y24.63 E30.83365
G1 X140.667 Y24.699 E30.89641
G1 X142.181 Y24.791 E30.95947
G1 X143.843 Y24.918 E31.02877
G1 X145.157 Y25.037 E31.08362
G1 X146.683 Y25.198 E31.14742
G1 X148.123 Y25.372 E31.20772
G1 X149.715 Y25.589 E31.27452
G1 X150.975 Y25.779 E31.3275
G1 X152.628 Y26.053 E31.39716
G1 X153.966 Y26.295 E31.45369
G1 X155.601 Y26.616 E31.52296
G1 X156.912 Y26.894 E31.57868
G1 X158.545 Y27.266 E31.64831
G1 X159.773 Y27.565 E31.70086
G1 X161.437 Y27.997 E31.77233
G1 X162.786 Y28.368 E31.8305
G1 X164.345 Y28.823 E31.89802
G1 X165.641 Y29.222 E31.95439
G1 X167.222 Y29.735 E32.0235
G1 X168.499 Y30.17 E32.07959
G1 X170.012 Y30.712 E32.1464
G1 X171.48 Y31.263 E32.21159
G1 X173.038 Y31.877 E32.28122
G1 X174.313 Y32.401 E32.33853
G1 X175.822 Y33.048 E32.40679
G1 X177.035 Y33.591 E32.46204
G1 X178.555 Y34.297 E32.53172
G1 X179.768 Y34.882 E32.58771
G1 X181.276 Y35.638 E32.65784
G1 X182.444 Y36.248 E32.71262
G1 X183.863 Y37.013 E32.77965
G1 X185.148 Y37.731 E32.84084
