;FLAVOR:Marlin
;TIME:1860
;Filament used: 0.720207m
;Layer height: 0.2
;MINX:91.129
;MINY:63.325
;MINZ:0.2
;MAXX:155.887
;MAXY:121.799
;MAXZ:34.6
;Generated with Cura_SteamEngine 4.13.0
M140 S60
M105
M190 S60
M104 S200
M105
M109 S200
M82 ;absolute extrusion mode
M220 S100 ;reset feedrate
M221 S100 ;reset flowrate
G90 ;use absolute coordinates
M82 ;absolute extrusion mode
G28 ;home
G1 Z2 F1500 ;raise z
G92 E0 ;reset extruder

G1 X75 Y5 F5000 ;start position
G1 Z0.28 F1500 ;lower z
G1 E4 F500 ;prime the filament
G1 X180 E10 F500 ;1st line
G1 Y5.4 F5000
G1 X75 E20 F500 ;2nd line
G1 Z2 F1500 ;raise z
G92 E0 ;reset extruder
G92 E0
G92 E0
G1 F1500 E-6.5
;LAYER_COUNT:175
;LAYER:0
M107
G0 F9000 X94.054 Y69.279 Z0.2
;TYPE:SKIRT
G1 F1500 E0
G1 F1800 X94.271 Y68.996 E0.01483
G1 X94.721 Y68.447 E0.04434
G1 X94.844 Y68.306 E0.05212
G1 X95.367 Y67.746 E0.08397
G1 X95.545 Y67.568 E0.09444
G1 X96.103 Y67.047 E0.12618
G1 X96.323 Y66.855 E0.13832
G1 X96.861 Y66.414 E0.16724
G1 X96.913 Y66.374 E0.16997
G1 X97.469 Y65.972 E0.19849
G1 X97.744 Y65.786 E0.2123
G1 X98.332 Y65.415 E0.2412
G1 X98.527 Y65.3 E0.25061
G1 X99.279 Y64.894 E0.28614
G1 X99.397 Y64.836 E0.29161
G1 X99.958 Y64.579 E0.31727
G1 X100.379 Y64.4 E0.33628
G1 X101.267 Y64.066 E0.37573
G1 X101.768 Y63.914 E0.3975
G1 X102.135 Y63.812 E0.41333
G1 X102.926 Y63.623 E0.44714
G1 X103.065 Y63.595 E0.45304
G1 X103.696 Y63.486 E0.47966
G1 X103.899 Y63.457 E0.48819
G1 X104.584 Y63.381 E0.51684
G1 X104.782 Y63.365 E0.5251
G1 X105.445 Y63.331 E0.5527
G1 X105.723 Y63.325 E0.56426
G1 X106.538 Y63.337 E0.59815
G1 X106.754 Y63.348 E0.60714
G1 X107.448 Y63.404 E0.63609
G1 X108.552 Y63.529 E0.68228
G1 X109.772 Y63.691 E0.73345
G1 X112.282 Y63.955 E0.83837
G1 X114.757 Y64.144 E0.94157
G1 X117.276 Y64.265 E1.04642
G1 X119.786 Y64.315 E1.1508
G1 X122.33 Y64.293 E1.25657
G1 X124.813 Y64.202 E1.35987
G1 X127.318 Y64.039 E1.46423
G1 X128.008 Y63.978 E1.49303
G1 X128.367 Y63.952 E1.508
G1 X128.79 Y63.928 E1.52561
G1 X129.21 Y63.912 E1.54309
G1 X129.573 Y63.905 E1.55818
G1 X130.065 Y63.906 E1.57864
G1 X130.433 Y63.915 E1.59394
G1 X130.9 Y63.936 E1.61337
G1 X131.127 Y63.951 E1.62283
G1 X131.552 Y63.988 E1.64057
G1 X131.926 Y64.027 E1.6562
G1 X132.878 Y64.167 E1.69621
G1 X133.436 Y64.274 E1.71983
G1 X133.723 Y64.333 E1.73201
G1 X134.334 Y64.481 E1.75815
G1 X135.142 Y64.701 E1.79296
G1 X135.561 Y64.824 E1.81112
G1 X143.828 Y67.425 E2.17143
G1 X144.598 Y67.679 E2.20514
G1 X145.262 Y67.922 E2.23454
G1 X145.616 Y68.064 E2.25039
G1 X146.403 Y68.415 E2.28622
G1 X146.62 Y68.522 E2.29628
G1 X147.385 Y68.937 E2.33246
G1 X147.653 Y69.096 E2.34542
G1 X148 Y69.31 E2.36237
G1 X148.129 Y69.393 E2.36875
G1 X148.951 Y69.975 E2.41062
G1 X149.28 Y70.231 E2.42795
G1 X149.958 Y70.803 E2.46483
G1 X150.154 Y70.982 E2.47587
G1 X150.826 Y71.65 E2.51526
G1 X151.048 Y71.89 E2.52885
G1 X151.505 Y72.416 E2.55782
G1 X151.647 Y72.59 E2.56716
G1 X152.121 Y73.214 E2.59974
G1 X152.318 Y73.493 E2.61394
G1 X152.82 Y74.27 E2.6524
G1 X152.942 Y74.477 E2.66239
G1 X153.283 Y75.1 E2.69191
G1 X153.423 Y75.376 E2.70478
G1 X153.768 Y76.123 E2.73899
G1 X153.868 Y76.362 E2.74976
G1 X154.125 Y77.034 E2.77967
G1 X154.223 Y77.318 E2.79216
G1 X154.442 Y78.028 E2.82305
G1 X154.472 Y78.138 E2.82779
G1 X154.554 Y78.46 E2.84161
G1 X154.602 Y78.659 E2.85012
G1 X154.693 Y79.066 E2.86746
G1 X154.857 Y80.034 E2.90828
G1 X154.909 Y80.452 E2.92579
G1 X154.99 Y81.519 E2.97028
G1 X155 Y81.868 E2.98479
G1 X154.993 Y82.709 E3.01976
G1 X154.924 Y84.206 E3.08206
G1 X154.924 Y84.327 E3.08709
G1 X154.874 Y85.292 E3.12727
G1 X154.817 Y87.8 E3.23156
G1 X154.83 Y90.309 E3.33588
G1 X154.915 Y92.83 E3.44075
G1 X155.07 Y95.349 E3.54567
G1 X155.295 Y97.831 E3.64929
G1 X155.593 Y100.335 E3.75413
G1 X155.666 Y100.856 E3.776
G1 X155.799 Y101.937 E3.82128
G1 X155.879 Y103.029 E3.8668
G1 X155.887 Y103.348 E3.88007
G1 X155.88 Y104.136 E3.91283
G1 X155.87 Y104.358 E3.92207
G1 X155.808 Y105.129 E3.95423
G1 X155.767 Y105.488 E3.96925
G1 X155.639 Y106.328 E4.00458
G1 X155.589 Y106.589 E4.01562
G1 X155.381 Y107.479 E4.05362
G1 X155.3 Y107.771 E4.06622
G1 X155.094 Y108.433 E4.09505
G1 X155.025 Y108.633 E4.10384
G1 X154.808 Y109.21 E4.12947
G1 X154.722 Y109.421 E4.13894
G1 X154.534 Y109.855 E4.15861
G1 X154.464 Y110.008 E4.1656
G1 X154.132 Y110.676 E4.19662
G1 X154.018 Y110.887 E4.20659
G1 X153.753 Y111.35 E4.22877
G1 X153.715 Y111.413 E4.23183
G1 X153.407 Y111.896 E4.25564
G1 X153.189 Y112.219 E4.27184
G1 X152.725 Y112.857 E4.30464
G1 X152.477 Y113.174 E4.32137
G1 X151.955 Y113.794 E4.35507
G1 X151.907 Y113.847 E4.35804
G1 X151.547 Y114.226 E4.37978
G1 X151.382 Y114.392 E4.38951
G1 X150.882 Y114.865 E4.41812
G1 X150.682 Y115.043 E4.42925
G1 X150.178 Y115.466 E4.45661
G1 X150.016 Y115.594 E4.46519
G1 X149.482 Y115.991 E4.49286
G1 X149.24 Y116.16 E4.50513
G1 X148.58 Y116.587 E4.53781
G1 X148.383 Y116.705 E4.54736
G1 X147.871 Y116.994 E4.5718
G1 X147.467 Y117.201 E4.59067
G1 X147.177 Y117.342 E4.60408
G1 X146.453 Y117.663 E4.63701
G1 X146.234 Y117.751 E4.64682
G1 X145.587 Y117.988 E4.67547
G1 X144.624 Y118.308 E4.71766
G1 X136.731 Y120.791 E5.06166
G1 X136.016 Y121.007 E5.09272
G1 X135.671 Y121.105 E5.10763
G1 X135.051 Y121.27 E5.1343
G1 X134.194 Y121.462 E5.17081
G1 X133.743 Y121.545 E5.18988
G1 X132.806 Y121.677 E5.22922
G1 X132.266 Y121.73 E5.25178
G1 X131.798 Y121.766 E5.27129
G1 X131.62 Y121.776 E5.2787
G1 X131.207 Y121.792 E5.29589
G1 X130.845 Y121.799 E5.31094
G1 X130.352 Y121.798 E5.33144
G1 X129.984 Y121.789 E5.34674
G1 X129.464 Y121.764 E5.36839
G1 X129.337 Y121.755 E5.37368
G1 X128.957 Y121.721 E5.38954
G1 X128.519 Y121.675 E5.40785
G1 X128.061 Y121.618 E5.42704
G1 X127.611 Y121.552 E5.44595
G1 X127.235 Y121.49 E5.46179
G1 X125.871 Y121.242 E5.51943
G1 X125.128 Y121.102 E5.55086
G1 X122.627 Y120.699 E5.65618
G1 X120.117 Y120.366 E5.76145
G1 X117.64 Y120.11 E5.86498
G1 X115.151 Y119.923 E5.96876
G1 X112.625 Y119.806 E6.07389
G1 X110.11 Y119.76 E6.17847
G1 X107.248 Y119.789 E6.29746
G1 X106.513 Y119.773 E6.32802
G1 X106.223 Y119.757 E6.3401
G1 X105.488 Y119.692 E6.37078
G1 X105.282 Y119.667 E6.3794
G1 X104.698 Y119.581 E6.40395
G1 X104.538 Y119.553 E6.4107
G1 X103.814 Y119.401 E6.44146
G1 X103.58 Y119.344 E6.45147
G1 X102.862 Y119.144 E6.48246
G1 X102.643 Y119.075 E6.492
G1 X102.054 Y118.871 E6.51792
G1 X101.826 Y118.785 E6.52805
G1 X101.055 Y118.461 E6.56282
G1 X100.857 Y118.369 E6.5719
G1 X99.801 Y117.808 E6.62161
G1 X99.327 Y117.523 E6.6446
G1 X98.215 Y116.76 E6.70067
G1 X97.967 Y116.567 E6.71374
G1 X97.112 Y115.83 E6.76067
G1 X96.853 Y115.583 E6.77555
G1 X96.08 Y114.769 E6.82222
G1 X95.844 Y114.494 E6.83728
G1 X95.21 Y113.683 E6.88008
G1 X95.021 Y113.417 E6.89365
G1 X94.498 Y112.61 E6.93363
G1 X94.392 Y112.43 E6.94231
G1 X94.005 Y111.714 E6.97615
G1 X93.847 Y111.395 E6.99095
G1 X93.462 Y110.528 E7.03039
G1 X93.255 Y109.96 E7.05552
G1 X93.072 Y109.411 E7.07958
G1 X92.755 Y108.26 E7.12922
G1 X92.702 Y108.018 E7.13952
G1 X92.545 Y107.127 E7.17713
G1 X92.511 Y106.877 E7.18762
G1 X92.447 Y106.302 E7.21168
G1 X92.436 Y106.171 E7.21714
G1 X92.405 Y105.662 E7.23834
G1 X92.397 Y105.454 E7.247
G1 X92.391 Y104.808 E7.27385
G1 X92.394 Y104.65 E7.28042
G1 X92.415 Y104.143 E7.30152
G1 X92.486 Y103.038 E7.34756
G1 X92.556 Y102.135 E7.38521
G1 X92.686 Y99.573 E7.49186
G1 X92.741 Y97.101 E7.59466
G1 X92.726 Y94.562 E7.70022
G1 X92.64 Y92.08 E7.80348
G1 X92.481 Y89.545 E7.90908
G1 X92.255 Y87.07 E8.0124
G1 X91.958 Y84.589 E8.11629
G1 X91.58 Y82.042 E8.22334
G1 X91.365 Y80.813 E8.27521
G1 X91.299 Y80.388 E8.29309
G1 X91.25 Y80.026 E8.30828
G1 X91.162 Y79.079 E8.34782
G1 X91.141 Y78.659 E8.3653
G1 X91.129 Y77.885 E8.39749
G1 X91.13 Y77.832 E8.39969
G1 X91.165 Y77.135 E8.42871
G1 X91.203 Y76.666 E8.44827
G1 X91.397 Y75.308 E8.5053
G1 X91.454 Y75.031 E8.51706
G1 X91.64 Y74.264 E8.54987
G1 X91.74 Y73.907 E8.56528
G1 X92.034 Y73.005 E8.60473
G1 X92.216 Y72.547 E8.62522
G1 X92.37 Y72.184 E8.64161
G1 X92.649 Y71.578 E8.66935
G1 X92.714 Y71.447 E8.67543
G1 X93.103 Y70.73 E8.70934
G1 X93.293 Y70.408 E8.72488
G1 X94.054 Y69.279 E8.78149
G0 F9000 X94.451 Y69.584
G1 F1800 X94.668 Y69.301 E8.79632
G1 X95.098 Y68.775 E8.82456
G1 X95.221 Y68.634 E8.83234
G1 X95.721 Y68.1 E8.86276
G1 X95.899 Y67.922 E8.87322
G1 X96.432 Y67.424 E8.90355
G1 X96.652 Y67.232 E8.91569
G1 X97.166 Y66.81 E8.94334
G1 X97.218 Y66.77 E8.94607
G1 X97.749 Y66.387 E8.97329
G1 X98.024 Y66.201 E8.98709
G1 X98.586 Y65.845 E9.01475
G1 X98.781 Y65.73 E9.02416
G1 X99.5 Y65.342 E9.05813
G1 X99.618 Y65.284 E9.06359
G1 X100.154 Y65.039 E9.08809
G1 X100.575 Y64.86 E9.10711
G1 X101.443 Y64.534 E9.14566
G1 X101.902 Y64.396 E9.16559
G1 X102.269 Y64.294 E9.18143
G1 X103.025 Y64.113 E9.21374
G1 X103.164 Y64.085 E9.21964
G1 X103.767 Y63.981 E9.24508
G1 X103.97 Y63.952 E9.25361
G1 X104.624 Y63.879 E9.28096
G1 X104.822 Y63.863 E9.28922
G1 X105.456 Y63.831 E9.31562
G1 X105.734 Y63.825 E9.32718
G1 X106.513 Y63.836 E9.35957
G1 X106.729 Y63.847 E9.36856
G1 X107.391 Y63.901 E9.39617
G1 X108.495 Y64.026 E9.44236
G1 X108.713 Y64.053 E9.4515
G1 X109.723 Y64.188 E9.49386
G1 X112.224 Y64.452 E9.59842
G1 X114.731 Y64.643 E9.70295
G1 X117.278 Y64.765 E9.80896
G1 X119.78 Y64.815 E9.913
G1 X122.318 Y64.793 E10.01853
G1 X124.863 Y64.7 E10.12441
G1 X127.353 Y64.538 E10.22815
G1 X128.052 Y64.476 E10.25732
G1 X128.395 Y64.451 E10.27162
G1 X128.818 Y64.427 E10.28923
G1 X129.22 Y64.412 E10.30596
G1 X129.583 Y64.405 E10.32105
G1 X130.053 Y64.406 E10.34059
G1 X130.421 Y64.415 E10.3559
G1 X130.867 Y64.435 E10.37446
G1 X131.094 Y64.45 E10.38392
G1 X131.5 Y64.485 E10.40086
G1 X131.874 Y64.524 E10.41649
G1 X132.783 Y64.658 E10.45469
G1 X133.341 Y64.765 E10.47832
G1 X133.619 Y64.822 E10.49011
G1 X134.202 Y64.964 E10.51506
G1 X135.01 Y65.184 E10.54988
G1 X135.411 Y65.301 E10.56724
G1 X143.672 Y67.9 E10.92729
G1 X144.442 Y68.154 E10.961
G1 X145.076 Y68.386 E10.98907
G1 X145.43 Y68.528 E11.00493
G1 X146.182 Y68.863 E11.03915
G1 X146.399 Y68.97 E11.04921
G1 X147.13 Y69.367 E11.0838
G1 X147.398 Y69.526 E11.09675
G1 X147.73 Y69.731 E11.11297
G1 X147.859 Y69.814 E11.11935
G1 X148.644 Y70.37 E11.15935
G1 X148.973 Y70.626 E11.17668
G1 X149.62 Y71.172 E11.21187
G1 X149.816 Y71.351 E11.22291
G1 X150.459 Y71.989 E11.26057
G1 X150.681 Y72.229 E11.27416
G1 X151.118 Y72.732 E11.30186
G1 X151.26 Y72.906 E11.3112
G1 X151.713 Y73.502 E11.34232
G1 X151.91 Y73.781 E11.35652
G1 X152.389 Y74.524 E11.39328
G1 X152.511 Y74.731 E11.40327
G1 X152.837 Y75.326 E11.43147
G1 X152.977 Y75.602 E11.44434
G1 X153.307 Y76.316 E11.47704
G1 X153.407 Y76.555 E11.48781
G1 X153.652 Y77.197 E11.51638
G1 X153.75 Y77.481 E11.52887
G1 X153.959 Y78.159 E11.55837
G1 X154.068 Y78.577 E11.57633
G1 X154.116 Y78.776 E11.58484
G1 X154.204 Y79.171 E11.60167
G1 X154.361 Y80.096 E11.64067
G1 X154.413 Y80.514 E11.65818
G1 X154.491 Y81.533 E11.70067
G1 X154.501 Y81.882 E11.71519
G1 X154.494 Y82.686 E11.74862
G1 X154.428 Y84.116 E11.80813
G1 X154.425 Y84.302 E11.81587
G1 X154.374 Y85.29 E11.857
G1 X154.317 Y87.792 E11.96105
G1 X154.33 Y90.329 E12.06652
G1 X154.415 Y92.84 E12.17098
G1 X154.572 Y95.392 E12.27728
G1 X154.796 Y97.864 E12.38047
G1 X155.101 Y100.428 E12.48782
G1 X155.17 Y100.917 E12.50836
G1 X155.303 Y101.998 E12.55364
G1 X155.38 Y103.041 E12.59712
G1 X155.388 Y103.36 E12.61038
G1 X155.38 Y104.114 E12.64173
G1 X155.37 Y104.336 E12.65097
G1 X155.312 Y105.072 E12.68167
G1 X155.271 Y105.431 E12.69669
G1 X155.148 Y106.234 E12.73046
G1 X155.098 Y106.495 E12.74151
G1 X154.899 Y107.346 E12.77785
G1 X154.818 Y107.638 E12.79045
G1 X154.621 Y108.27 E12.81797
G1 X154.552 Y108.47 E12.82676
G1 X154.345 Y109.021 E12.85124
G1 X154.259 Y109.232 E12.86071
G1 X154.079 Y109.647 E12.87952
G1 X154.009 Y109.8 E12.88651
G1 X153.692 Y110.438 E12.91613
G1 X153.578 Y110.649 E12.9261
G1 X153.325 Y111.091 E12.94727
G1 X153.287 Y111.154 E12.95033
G1 X152.992 Y111.616 E12.97312
G1 X152.774 Y111.939 E12.98932
G1 X152.331 Y112.549 E13.02067
G1 X152.083 Y112.866 E13.0374
G1 X151.584 Y113.458 E13.06959
G1 X151.536 Y113.511 E13.07256
G1 X151.192 Y113.873 E13.09332
G1 X151.027 Y114.039 E13.10305
G1 X150.55 Y114.491 E13.13038
G1 X150.35 Y114.669 E13.14151
G1 X149.868 Y115.074 E13.16768
G1 X149.706 Y115.202 E13.17626
G1 X149.196 Y115.581 E13.20268
G1 X148.954 Y115.75 E13.21495
G1 X148.323 Y116.158 E13.24619
G1 X148.126 Y116.276 E13.25574
G1 X147.634 Y116.554 E13.27924
G1 X147.249 Y116.751 E13.29722
G1 X146.959 Y116.892 E13.31062
G1 X146.266 Y117.199 E13.34213
G1 X146.047 Y117.287 E13.35195
G1 X145.429 Y117.514 E13.37932
G1 X144.466 Y117.834 E13.42151
G1 X136.581 Y120.314 E13.76516
G1 X135.872 Y120.528 E13.79595
G1 X135.543 Y120.621 E13.81016
G1 X134.923 Y120.786 E13.83684
G1 X134.104 Y120.97 E13.87174
G1 X133.653 Y121.053 E13.8908
G1 X132.757 Y121.18 E13.92843
G1 X132.217 Y121.233 E13.95098
G1 X131.77 Y121.267 E13.96962
G1 X131.592 Y121.277 E13.97703
G1 X131.197 Y121.292 E13.99347
G1 X130.835 Y121.299 E14.00852
G1 X130.364 Y121.298 E14.0281
G1 X129.996 Y121.289 E14.04341
G1 X129.499 Y121.265 E14.06409
G1 X129.372 Y121.256 E14.06939
G1 X129.009 Y121.224 E14.08454
G1 X128.571 Y121.178 E14.10285
G1 X128.134 Y121.123 E14.12116
G1 X127.684 Y121.057 E14.14007
G1 X127.325 Y120.998 E14.15519
G1 X125.963 Y120.751 E14.21274
G1 X125.188 Y120.604 E14.24554
G1 X122.701 Y120.204 E14.35027
G1 X120.194 Y119.872 E14.4554
G1 X117.694 Y119.614 E14.55989
G1 X115.144 Y119.422 E14.66621
G1 X112.657 Y119.306 E14.76972
G1 X110.114 Y119.26 E14.87546
G1 X107.243 Y119.289 E14.99483
G1 X106.541 Y119.274 E15.02402
G1 X106.251 Y119.258 E15.0361
G1 X105.548 Y119.196 E15.06544
G1 X105.342 Y119.171 E15.07407
G1 X104.784 Y119.088 E15.09752
G1 X104.624 Y119.06 E15.10428
G1 X103.933 Y118.916 E15.13362
G1 X103.699 Y118.859 E15.14363
G1 X103.013 Y118.667 E15.17325
G1 X102.794 Y118.598 E15.1828
G1 X102.23 Y118.403 E15.20761
G1 X102.002 Y118.317 E15.21774
G1 X101.266 Y118.008 E15.25092
G1 X101.068 Y117.916 E15.26
G1 X100.059 Y117.38 E15.3075
G1 X99.585 Y117.095 E15.3305
G1 X98.522 Y116.366 E15.38409
G1 X98.274 Y116.173 E15.39715
G1 X97.457 Y115.468 E15.44202
G1 X97.198 Y115.221 E15.4569
G1 X96.459 Y114.443 E15.50151
G1 X96.223 Y114.168 E15.51657
G1 X95.618 Y113.393 E15.55745
G1 X95.429 Y113.127 E15.57102
G1 X94.929 Y112.356 E15.60922
G1 X94.823 Y112.176 E15.61791
G1 X94.453 Y111.492 E15.65024
G1 X94.295 Y111.173 E15.66504
G1 X93.92 Y110.325 E15.70359
G1 X93.73 Y109.801 E15.72676
G1 X93.547 Y109.252 E15.75082
G1 X93.244 Y108.153 E15.79821
G1 X93.191 Y107.911 E15.80851
G1 X93.04 Y107.06 E15.84445
G1 X93.006 Y106.81 E15.85494
G1 X92.946 Y106.261 E15.8779
G1 X92.935 Y106.13 E15.88336
G1 X92.905 Y105.643 E15.90365
G1 X92.897 Y105.435 E15.9123
G1 X92.891 Y104.818 E15.93796
G1 X92.894 Y104.66 E15.94453
G1 X92.914 Y104.175 E15.96471
G1 X92.996 Y102.917 E16.01712
G1 X93.058 Y102.126 E16.05011
G1 X93.185 Y99.611 E16.1548
G1 X93.241 Y97.109 E16.25885
G1 X93.226 Y94.577 E16.36412
G1 X93.138 Y92.032 E16.46999
G1 X92.981 Y89.539 E16.57384
G1 X92.75 Y86.997 E16.67996
G1 X92.45 Y84.497 E16.78465
G1 X92.079 Y81.997 E16.88972
G1 X91.857 Y80.727 E16.94332
G1 X91.794 Y80.321 E16.9604
G1 X91.745 Y79.959 E16.97559
G1 X91.661 Y79.054 E17.01338
G1 X91.64 Y78.634 E17.03086
G1 X91.629 Y77.894 E17.06163
G1 X91.63 Y77.841 E17.06384
G1 X91.663 Y77.176 E17.09152
G1 X91.701 Y76.707 E17.11108
G1 X91.887 Y75.408 E17.16564
G1 X91.944 Y75.131 E17.17739
G1 X92.121 Y74.398 E17.20874
G1 X92.221 Y74.041 E17.22416
G1 X92.677 Y72.743 E17.28136
G1 X92.831 Y72.38 E17.29775
G1 X93.097 Y71.8 E17.32428
G1 X93.162 Y71.669 E17.33036
G1 X93.534 Y70.984 E17.36277
G1 X93.724 Y70.662 E17.37831
G1 X94.451 Y69.584 E17.43237
G0 F9000 X94.848 Y69.888
G1 F1800 X95.065 Y69.605 E17.44719
G1 X95.475 Y69.104 E17.47411
G1 X95.598 Y68.963 E17.48189
G1 X96.074 Y68.453 E17.51089
G1 X96.252 Y68.275 E17.52136
G1 X96.76 Y67.8 E17.55027
G1 X96.98 Y67.608 E17.56241
G1 X97.47 Y67.207 E17.58874
G1 X97.522 Y67.167 E17.59146
G1 X98.029 Y66.801 E17.61746
G1 X98.304 Y66.615 E17.63126
G1 X98.84 Y66.276 E17.65763
G1 X99.035 Y66.161 E17.66704
G1 X99.721 Y65.791 E17.69945
G1 X99.839 Y65.733 E17.70491
G1 X100.349 Y65.499 E17.72824
G1 X100.77 Y65.32 E17.74726
