;FLAVOR:Marlin
;TIME:5481
;Filament used: 3.59833m
;Layer height: 0.2
;MINX:100.252
;MINY:80.75
;MINZ:0.2
;MAXX:154.76
;MAXY:129.25
;MAXZ:80
;Generated with Cura_SteamEngine 4.13.0
M140 S60
M105
M190 S60
M104 S200
M105
M109 S200
M82 ;absolute extrusion mode
M220 S100 ;reset feedrate
M221 S100 ;reset flowrate
G90 ;use absolute coordinates
M82 ;absolute extrusion mode
G28 ;home
G1 Z2 F1500 ;raise z
G92 E0 ;reset extruder

G1 X75 Y5 F5000 ;start position
G1 Z0.28 F1500 ;lower z
G1 E4 F500 ;prime the filament
G1 X180 E10 F500 ;1st line
G1 Y5.4 F5000
G1 X75 E20 F500 ;2nd line
G1 Z2 F1500 ;raise z
G92 E0 ;reset extruder
G92 E0
G92 E0
G1 F1500 E-6.5
;LAYER_COUNT:400
;LAYER:0
M107
G0 F9000 X105.115 Y85.127 Z0.2
;TYPE:SKIRT
G1 F1500 E0
G1 F1800 X105.727 Y84.402 E0.03945
G1 X106.397 Y83.731 E0.07887
G1 X107.122 Y83.119 E0.11831
G1 X107.895 Y82.57 E0.15773
G1 X108.712 Y82.088 E0.19717
G1 X109.567 Y81.676 E0.23663
G1 X110.453 Y81.338 E0.27605
G1 X111.364 Y81.076 E0.31546
G1 X112.295 Y80.892 E0.35492
G1 X113.546 Y80.77 E0.40718
G1 X113.69 Y80.764 E0.41317
G1 X114.042 Y80.755 E0.42781
G1 X114.546 Y80.75 E0.44876
G1 X118.803 Y80.75 E0.62575
G1 X119.663 Y80.761 E0.6615
G1 X120.61 Y80.815 E0.70094
G1 X121.549 Y80.948 E0.74037
G1 X122.548 Y81.18 E0.78301
G1 X123.428 Y81.464 E0.82145
G1 X124.796 Y81.97 E0.88209
G1 X125.118 Y82.093 E0.89642
G1 X127.47 Y82.918 E1.00005
G1 X129.887 Y83.689 E1.10553
G1 X132.257 Y84.372 E1.20807
G1 X134.732 Y85.01 E1.31433
G1 X137.179 Y85.57 E1.4187
G1 X139.617 Y86.051 E1.52201
G1 X142.107 Y86.471 E1.62699
G1 X144.461 Y86.804 E1.72584
G1 X144.854 Y86.856 E1.74232
G1 X145.788 Y87.019 E1.78174
G1 X146.705 Y87.26 E1.82116
G1 X147.599 Y87.578 E1.8606
G1 X148.463 Y87.97 E1.90005
G1 X149.29 Y88.433 E1.93945
G1 X150.076 Y88.964 E1.97889
G1 X150.814 Y89.56 E2.01833
G1 X151.378 Y90.09 E2.05051
G1 X151.49 Y90.203 E2.05712
G1 X152.129 Y90.905 E2.09659
G1 X152.706 Y91.657 E2.13599
G1 X153.218 Y92.456 E2.17545
G1 X153.661 Y93.294 E2.21486
G1 X154.032 Y94.167 E2.25429
G1 X154.327 Y95.069 E2.29375
G1 X154.546 Y95.992 E2.33319
G1 X154.687 Y96.93 E2.37262
G1 X154.744 Y97.743 E2.40651
G1 X154.754 Y98.125 E2.42239
G1 X154.76 Y98.655 E2.44443
G1 X154.759 Y111.336 E2.97165
G1 X154.749 Y112.038 E3.00083
G1 X154.695 Y112.985 E3.04027
G1 X154.562 Y113.924 E3.0797
G1 X154.351 Y114.849 E3.11914
G1 X154.062 Y115.752 E3.15856
G1 X153.698 Y116.628 E3.198
G1 X153.262 Y117.47 E3.23742
G1 X152.756 Y118.273 E3.27688
G1 X152.184 Y119.03 E3.31633
G1 X151.215 Y120.066 E3.3753
G1 X151.094 Y120.18 E3.38222
G1 X150.376 Y120.801 E3.42168
G1 X149.61 Y121.359 E3.46108
G1 X148.798 Y121.851 E3.50056
G1 X147.949 Y122.272 E3.53996
G1 X147.067 Y122.62 E3.57938
G1 X146.158 Y122.893 E3.61883
G1 X145.063 Y123.115 E3.66529
G1 X144.706 Y123.168 E3.68029
G1 X142.432 Y123.476 E3.7757
G1 X139.995 Y123.878 E3.87838
G1 X137.495 Y124.362 E3.98425
G1 X135.074 Y124.904 E4.0874
G1 X132.636 Y125.52 E4.19194
G1 X130.186 Y126.215 E4.29782
G1 X127.799 Y126.965 E4.40184
G1 X125.431 Y127.784 E4.50602
G1 X123.454 Y128.525 E4.59379
G1 X122.552 Y128.82 E4.63325
G1 X121.629 Y129.038 E4.67268
G1 X120.691 Y129.178 E4.71211
G1 X119.851 Y129.235 E4.74711
G1 X119.523 Y129.245 E4.76075
G1 X119.18 Y129.25 E4.77502
G1 X114.556 Y129.249 E4.96726
G1 X113.855 Y129.239 E4.99641
G1 X112.908 Y129.185 E5.03584
G1 X111.968 Y129.052 E5.07531
G1 X111.044 Y128.841 E5.11472
G1 X110.141 Y128.552 E5.15414
G1 X109.265 Y128.188 E5.19357
G1 X108.422 Y127.751 E5.23305
G1 X107.62 Y127.246 E5.27245
G1 X106.863 Y126.674 E5.3119
G1 X106.157 Y126.041 E5.35132
G1 X105.267 Y125.063 E5.4063
G1 X104.97 Y124.691 E5.42609
G1 X104.67 Y124.297 E5.44668
G1 X102.787 Y121.78 E5.57737
G1 X102.4 Y121.247 E5.60475
G1 X101.875 Y120.457 E5.64419
G1 X101.419 Y119.625 E5.68363
G1 X101.035 Y118.758 E5.72306
G1 X100.725 Y117.861 E5.76251
G1 X100.492 Y116.942 E5.80193
G1 X100.337 Y116.006 E5.84137
G1 X100.274 Y115.323 E5.86989
G1 X100.255 Y114.374 E5.90935
G1 X100.286 Y113.747 E5.93545
G1 X100.377 Y112.599 E5.98333
G1 X100.434 Y111.986 E6.00893
G1 X100.597 Y109.47 E6.11375
G1 X100.688 Y106.952 E6.2185
G1 X100.708 Y104.448 E6.32261
G1 X100.656 Y101.93 E6.42732
G1 X100.535 Y99.427 E6.5315
G1 X100.339 Y96.887 E6.63742
G1 X100.307 Y96.527 E6.65244
G1 X100.283 Y96.207 E6.66578
G1 X100.252 Y95.259 E6.70522
G1 X100.3 Y94.312 E6.74464
G1 X100.429 Y93.372 E6.78409
G1 X100.636 Y92.447 E6.8235
G1 X100.921 Y91.542 E6.86294
G1 X101.28 Y90.665 E6.90234
G1 X101.713 Y89.82 E6.94182
G1 X102.39 Y88.767 E6.99386
G1 X102.899 Y88.066 E7.02988
G1 X104.712 Y85.648 E7.15553
G1 X105.115 Y85.127 E7.18291
G0 F9000 X105.511 Y85.433
G1 F1800 X106.109 Y84.725 E7.22144
G1 X106.766 Y84.071 E7.25998
G1 X107.478 Y83.476 E7.29856
G1 X108.237 Y82.944 E7.3371
G1 X109.04 Y82.48 E7.37565
G1 X109.88 Y82.087 E7.41421
G1 X110.75 Y81.768 E7.45273
G1 X111.645 Y81.524 E7.4913
G1 X112.557 Y81.359 E7.52983
G1 X113.566 Y81.269 E7.57195
G1 X113.71 Y81.263 E7.57794
G1 X114.047 Y81.255 E7.59196
G1 X114.546 Y81.25 E7.6127
G1 X118.803 Y81.25 E7.78969
G1 X119.656 Y81.261 E7.82516
G1 X120.581 Y81.314 E7.86368
G1 X121.499 Y81.447 E7.90224
G1 X122.445 Y81.671 E7.94266
G1 X123.255 Y81.933 E7.97805
G1 X124.617 Y82.437 E8.03843
G1 X124.941 Y82.561 E8.05285
G1 X127.301 Y83.389 E8.15683
G1 X129.734 Y84.165 E8.26301
G1 X132.14 Y84.858 E8.3671
G1 X134.6 Y85.492 E8.47272
G1 X137.108 Y86.066 E8.57969
G1 X139.514 Y86.541 E8.68165
G1 X142.024 Y86.965 E8.78748
G1 X144.425 Y87.304 E8.88829
G1 X144.789 Y87.352 E8.90356
G1 X145.702 Y87.512 E8.94209
G1 X146.598 Y87.75 E8.98064
G1 X147.47 Y88.065 E9.01918
G1 X148.312 Y88.454 E9.05774
G1 X149.117 Y88.914 E9.09629
G1 X149.879 Y89.441 E9.13481
G1 X150.593 Y90.032 E9.17334
G1 X151.023 Y90.442 E9.19805
G1 X151.135 Y90.555 E9.20466
G1 X151.759 Y91.241 E9.24321
G1 X152.321 Y91.979 E9.28178
G1 X152.818 Y92.762 E9.32034
G1 X153.245 Y93.584 E9.35885
G1 X153.6 Y94.441 E9.39741
G1 X153.879 Y95.325 E9.43595
G1 X154.082 Y96.23 E9.47451
G1 X154.206 Y97.149 E9.51307
G1 X154.244 Y97.76 E9.53852
G1 X154.254 Y98.131 E9.55395
G1 X154.26 Y98.655 E9.57574
G1 X154.259 Y111.329 E10.10266
G1 X154.249 Y112.031 E10.13185
G1 X154.196 Y112.957 E10.17041
G1 X154.063 Y113.874 E10.20893
G1 X153.852 Y114.777 E10.24749
G1 X153.563 Y115.658 E10.28604
G1 X153.2 Y116.511 E10.32458
G1 X152.765 Y117.33 E10.36313
G1 X152.261 Y118.108 E10.40167
G1 X151.691 Y118.84 E10.44024
G1 X150.872 Y119.702 E10.48968
G1 X150.751 Y119.816 E10.49659
G1 X150.049 Y120.422 E10.53515
G1 X149.298 Y120.966 E10.5737
G1 X148.503 Y121.442 E10.61222
G1 X147.669 Y121.849 E10.6508
G1 X146.804 Y122.182 E10.68934
G1 X145.913 Y122.439 E10.72789
G1 X144.988 Y122.621 E10.76709
G1 X144.638 Y122.673 E10.7818
G1 X142.359 Y122.982 E10.87742
G1 X139.889 Y123.389 E10.98149
G1 X137.396 Y123.872 E11.08707
G1 X134.955 Y124.418 E11.19106
G1 X132.506 Y125.037 E11.29608
G1 X130.046 Y125.735 E11.40239
G1 X127.665 Y126.483 E11.50615
G1 X125.238 Y127.323 E11.61293
G1 X123.278 Y128.057 E11.69994
G1 X122.397 Y128.345 E11.73848
G1 X121.494 Y128.555 E11.77702
G1 X120.576 Y128.687 E11.81558
G1 X119.836 Y128.735 E11.84641
G1 X119.508 Y128.745 E11.86005
G1 X119.18 Y128.75 E11.87369
G1 X114.563 Y128.749 E12.06564
G1 X113.862 Y128.739 E12.09479
G1 X112.936 Y128.686 E12.13335
G1 X112.018 Y128.553 E12.17192
G1 X111.116 Y128.342 E12.21043
G1 X110.235 Y128.053 E12.24898
G1 X109.381 Y127.69 E12.28756
G1 X108.563 Y127.255 E12.32607
G1 X107.785 Y126.751 E12.36461
G1 X107.053 Y126.181 E12.40319
G1 X106.373 Y125.551 E12.44172
G1 X105.655 Y124.749 E12.48648
G1 X105.541 Y124.608 E12.49402
G1 X105.367 Y124.387 E12.50571
G1 X105.07 Y123.997 E12.52609
G1 X103.191 Y121.486 E12.65648
G1 X102.804 Y120.953 E12.68386
G1 X102.292 Y120.18 E12.72241
G1 X101.849 Y119.366 E12.76094
G1 X101.477 Y118.516 E12.79952
G1 X101.18 Y117.638 E12.83805
G1 X100.96 Y116.737 E12.87661
G1 X100.818 Y115.821 E12.91515
G1 X100.773 Y115.292 E12.93722
G1 X100.755 Y114.365 E12.97577
G1 X100.785 Y113.786 E12.99987
G1 X100.875 Y112.646 E13.04742
G1 X100.932 Y112.031 E13.07309
G1 X101.097 Y109.484 E13.17921
G1 X101.188 Y106.974 E13.28363
G1 X101.208 Y104.441 E13.38894
G1 X101.156 Y101.896 E13.49478
G1 X101.034 Y99.398 E13.59875
G1 X100.841 Y96.881 E13.70371
G1 X100.805 Y96.49 E13.72003
G1 X100.781 Y96.17 E13.73337
G1 X100.752 Y95.243 E13.77193
G1 X100.802 Y94.318 E13.81044
G1 X100.932 Y93.4 E13.84899
G1 X101.141 Y92.496 E13.88757
G1 X101.427 Y91.614 E13.92611
G1 X101.788 Y90.76 E13.96466
G1 X102.221 Y89.94 E14.00321
G1 X102.795 Y89.06 E14.0469
G1 X103.299 Y88.366 E14.08255
G1 X105.007 Y86.086 E14.20099
G1 X105.511 Y85.433 E14.23529
G0 F9000 X105.906 Y85.739
G1 F1800 X106.491 Y85.048 E14.27293
G1 X107.135 Y84.411 E14.31059
G1 X107.832 Y83.834 E14.34821
G1 X108.578 Y83.32 E14.38587
G1 X109.366 Y82.874 E14.42352
G1 X110.19 Y82.5 E14.46114
G1 X111.044 Y82.2 E14.49877
G1 X111.921 Y81.976 E14.5364
G1 X112.815 Y81.83 E14.57406
G1 X113.587 Y81.769 E14.60626
G1 X113.731 Y81.763 E14.61225
G1 X114.052 Y81.755 E14.6256
G1 X114.546 Y81.75 E14.64614
G1 X118.803 Y81.75 E14.82313
G1 X119.649 Y81.761 E14.8583
G1 X120.552 Y81.814 E14.89591
G1 X121.448 Y81.946 E14.93356
G1 X122.309 Y82.152 E14.97037
G1 X123.082 Y82.403 E15.00416
G1 X124.439 Y82.904 E15.0643
G1 X124.788 Y83.038 E15.07984
G1 X127.152 Y83.867 E15.18399
G1 X129.59 Y84.645 E15.29039
G1 X132.014 Y85.343 E15.39526
G1 X134.476 Y85.978 E15.50097
G1 X136.958 Y86.545 E15.60682
G1 X139.446 Y87.036 E15.71225
G1 X141.947 Y87.459 E15.81771
G1 X144.303 Y87.792 E15.91663
G1 X144.723 Y87.847 E15.93424
G1 X145.615 Y88.005 E15.9719
G1 X146.489 Y88.24 E16.00953
G1 X147.339 Y88.552 E16.04718
G1 X148.158 Y88.938 E16.08482
G1 X148.94 Y89.394 E16.12245
G1 X149.679 Y89.917 E16.16009
G1 X150.668 Y90.794 E16.21505
G1 X150.78 Y90.907 E16.22166
G1 X151.388 Y91.578 E16.25931
G1 X151.935 Y92.3 E16.29697
G1 X152.416 Y93.067 E16.33461
G1 X152.827 Y93.873 E16.37222
G1 X153.166 Y94.713 E16.40988
G1 X153.429 Y95.579 E16.44751
G1 X153.615 Y96.465 E16.48515
G1 X153.744 Y97.777 E16.53996
G1 X153.754 Y98.138 E16.55497
G1 X153.76 Y98.655 E16.57647
G1 X153.759 Y111.322 E17.1031
G1 X153.749 Y112.024 E17.13229
G1 X153.696 Y112.928 E17.16994
G1 X153.564 Y113.823 E17.20755
G1 X153.353 Y114.704 E17.24522
G1 X153.065 Y115.562 E17.28284
G1 X152.703 Y116.392 E17.32049
G1 X152.268 Y117.186 E17.35813
G1 X151.766 Y117.939 E17.39576
G1 X151.199 Y118.645 E17.4334
G1 X150.529 Y119.338 E17.47348
G1 X150.408 Y119.452 E17.48039
G1 X149.722 Y120.044 E17.51806
G1 X148.987 Y120.572 E17.55569
G1 X148.208 Y121.033 E17.59332
G1 X147.391 Y121.424 E17.63098
G1 X146.543 Y121.741 E17.66861
G1 X145.671 Y121.982 E17.70623
G1 X144.913 Y122.127 E17.73831
G1 X144.571 Y122.177 E17.75268
G1 X142.316 Y122.483 E17.84729
G1 X139.783 Y122.9 E17.95402
G1 X137.297 Y123.382 E18.0593
G1 X134.828 Y123.934 E18.16448
G1 X132.393 Y124.55 E18.26891
G1 X129.897 Y125.258 E18.37677
G1 X127.489 Y126.014 E18.48171
G1 X125.105 Y126.839 E18.58659
G1 X123.103 Y127.589 E18.67547
G1 X122.242 Y127.869 E18.71311
G1 X121.36 Y128.071 E18.75073
G1 X120.463 Y128.195 E18.78838
G1 X119.82 Y128.235 E18.81516
G1 X119.492 Y128.245 E18.82881
G1 X119.18 Y128.25 E18.84178
G1 X114.57 Y128.249 E19.03344
G1 X113.869 Y128.239 E19.06259
G1 X112.965 Y128.186 E19.10024
G1 X112.069 Y128.054 E19.13789
G1 X111.189 Y127.843 E19.17551
G1 X110.331 Y127.555 E19.21314
G1 X109.501 Y127.193 E19.25079
G1 X108.707 Y126.758 E19.28843
G1 X107.954 Y126.256 E19.32605
G1 X107.248 Y125.689 E19.3637
G1 X106.595 Y125.062 E19.40134
G1 X106.044 Y124.434 E19.43607
G1 X105.764 Y124.083 E19.45474
G1 X105.47 Y123.697 E19.47491
G1 X103.596 Y121.192 E19.60497
G1 X103.209 Y120.659 E19.63236
G1 X102.71 Y119.904 E19.66998
G1 X102.279 Y119.107 E19.70765
G1 X101.921 Y118.276 E19.74527
G1 X101.637 Y117.416 E19.78293
G1 X101.43 Y116.535 E19.82055
G1 X101.272 Y115.26 E19.87397
G1 X101.255 Y114.355 E19.9116
G1 X101.283 Y113.824 E19.9337
G1 X101.372 Y112.692 E19.98091
G1 X101.434 Y112.024 E20.0088
G1 X101.597 Y109.5 E20.11396
G1 X101.688 Y106.997 E20.21809
G1 X101.708 Y104.435 E20.32461
G1 X101.656 Y101.896 E20.43019
G1 X101.533 Y99.373 E20.53521
G1 X101.335 Y96.792 E20.64283
G1 X101.304 Y96.453 E20.65698
G1 X101.28 Y96.133 E20.67032
G1 X101.252 Y95.228 E20.70797
G1 X101.304 Y94.324 E20.74561
G1 X101.436 Y93.428 E20.78327
G1 X101.646 Y92.548 E20.82088
G1 X101.933 Y91.689 E20.85853
G1 X102.295 Y90.859 E20.89618
G1 X102.729 Y90.064 E20.93384
G1 X103.2 Y89.353 E20.9693
G1 X103.602 Y88.798 E20.99779
G1 X105.503 Y86.26 E21.12962
G1 X105.906 Y85.739 E21.15701
G1 F1500 E14.65701
G0 F9000 X119.667 Y91.339
G0 X130.62 Y101.839
G0 X130.988 Y101.75
G1 F1500 E21.15701
G1 F1800 X139.76 Y101.75 E21.5217
G1 X139.76 Y108.25 E21.79194
G1 X130.988 Y108.25 E22.15664
G1 X131.078 Y107.99 E22.16808
G1 X131.206 Y107.57 E22.18633
G1 X131.272 Y107.325 E22.19688
G1 X131.297 Y107.217 E22.20149
G1 X131.383 Y106.813 E22.21866
G1 X131.449 Y106.451 E22.23396
G1 X131.512 Y105.951 E22.25491
G1 X131.537 Y105.656 E22.26722
G1 X131.557 Y105.186 E22.28678
G1 X131.557 Y104.832 E22.3015
G1 X131.538 Y104.371 E22.32068
G1 X131.507 Y104.012 E22.33566
G1 X131.456 Y103.603 E22.3528
G1 X131.4 Y103.265 E22.36704
G1 X131.301 Y102.8 E22.38681
G1 X131.212 Y102.457 E22.40154
G1 X131.092 Y102.059 E22.41882
G1 X131.085 Y102.061 E22.41912
G1 X130.988 Y101.75 E22.43267
G0 F9000 X130.52 Y101.922
G1 F1800 X130.342 Y101.468 E22.45294
G1 X130.246 Y101.25 E22.46285
G1 X140.26 Y101.25 E22.87918
G1 X140.26 Y108.75 E23.19099
G1 X130.246 Y108.75 E23.60733
G1 X130.337 Y108.542 E23.61677
G1 X130.499 Y108.133 E23.63506
G1 X130.6 Y107.844 E23.64778
G1 X130.728 Y107.424 E23.66604
G1 X130.808 Y107.113 E23.67939
G1 X130.894 Y106.709 E23.69656
G1 X130.953 Y106.388 E23.71013
G1 X131.016 Y105.89 E23.731
G1 X131.037 Y105.635 E23.74164
G1 X131.057 Y105.165 E23.7612
G1 X131.057 Y104.852 E23.77421
G1 X131.038 Y104.391 E23.79339
G1 X131.011 Y104.075 E23.80658
G1 X130.959 Y103.662 E23.82388
G1 X130.911 Y103.369 E23.83623
G1 X130.812 Y102.904 E23.85599
G1 X130.734 Y102.602 E23.86896
G1 X130.614 Y102.204 E23.88624
G1 X130.609 Y102.206 E23.88647
G1 X130.52 Y101.922 E23.89884
G0 F9000 X130.054 Y102.104
G1 F1800 X129.876 Y101.65 E23.91911
G1 X129.768 Y101.407 E23.93017
G1 X129.561 Y100.992 E23.94945
G1 X129.435 Y100.763 E23.96032
G1 X129.427 Y100.75 E23.96095
G1 X140.76 Y100.75 E24.43212
G1 X140.76 Y109.25 E24.78551
G1 X129.428 Y109.249 E25.25664
G1 X129.559 Y109.012 E25.2679
G1 X129.76 Y108.608 E25.28666
G1 X129.872 Y108.358 E25.29805
G1 X130.034 Y107.949 E25.31634
G1 X130.122 Y107.699 E25.32736
G1 X130.25 Y107.279 E25.34561
G1 X130.319 Y107.009 E25.3572
G1 X130.405 Y106.605 E25.37437
G1 X130.457 Y106.325 E25.38621
G1 X130.52 Y105.83 E25.40696
G1 X130.538 Y105.614 E25.41597
G1 X130.558 Y105.144 E25.43553
G1 X130.558 Y104.873 E25.44679
G1 X130.539 Y104.412 E25.46598
G1 X130.515 Y104.138 E25.47741
G1 X130.463 Y103.721 E25.49488
G1 X130.422 Y103.473 E25.50533
G1 X130.323 Y103.008 E25.5251
G1 X130.255 Y102.746 E25.53635
G1 X130.135 Y102.348 E25.55364
G1 X130.054 Y102.104 E25.56432
G0 F9000 X129.589 Y102.287
G1 F1800 X129.411 Y101.833 E25.5846
G1 X129.31 Y101.611 E25.59474
G1 X129.113 Y101.215 E25.61313
G1 X129.007 Y101.021 E25.62232
G1 X128.78 Y100.644 E25.64061
G1 X128.504 Y100.25 E25.66061
G1 X141.26 Y100.25 E26.19095
G1 X141.26 Y109.75 E26.58591
G1 X128.503 Y109.75 E27.11629
G1 X128.683 Y109.502 E27.12903
G1 X128.769 Y109.371 E27.13554
G1 X129.041 Y108.921 E27.1574
G1 X129.111 Y108.789 E27.16361
G1 X129.352 Y108.302 E27.1862
G1 X129.407 Y108.174 E27.192
G1 X129.595 Y107.696 E27.21335
G1 X129.643 Y107.553 E27.21962
G1 X129.771 Y107.133 E27.23788
G1 X129.83 Y106.904 E27.24771
G1 X129.915 Y106.5 E27.26487
G1 X129.961 Y106.262 E27.27495
G1 X130.023 Y105.769 E27.29561
G1 X130.038 Y105.593 E27.30295
G1 X130.058 Y105.123 E27.32251
G1 X130.058 Y104.893 E27.33207
G1 X130.039 Y104.432 E27.35125
G1 X130.019 Y104.2 E27.36094
G1 X129.966 Y103.78 E27.37854
G1 X129.933 Y103.577 E27.38709
G1 X129.834 Y103.112 E27.40685
G1 X129.776 Y102.89 E27.41639
G1 X129.656 Y102.492 E27.43367
G1 X129.589 Y102.287 E27.44264
G0 F9000 X129.123 Y102.469
G1 F1800 X128.945 Y102.015 E27.46292
