;FLAVOR:Marlin
;TIME:2385
;Filament used: 1.27373m
;Layer height: 0.2
;MINX:80.482
;MINY:69.373
;MINZ:0.2
;MAXX:149.728
;MAXY:127.229
;MAXZ:34
;Generated with Cura_SteamEngine 4.13.0
M140 S60
M105
M190 S60
M104 S200
M105
M109 S200
M82 ;absolute extrusion mode
M220 S100 ;reset feedrate
M221 S100 ;reset flowrate
G90 ;use absolute coordinates
M82 ;absolute extrusion mode
G28 ;home
G1 Z2 F1500 ;raise z
G92 E0 ;reset extruder

G1 X75 Y5 F5000 ;start position
G1 Z0.28 F1500 ;lower z
G1 E4 F500 ;prime the filament
G1 X180 E10 F500 ;1st line
G1 Y5.4 F5000
G1 X75 E20 F500 ;2nd line
G1 Z2 F1500 ;raise z
G92 E0 ;reset extruder
G92 E0
G92 E0
G1 F1500 E-6.5
;LAYER_COUNT:170
;LAYER:0
M107
G0 F9000 X86.517 Y77.604 Z0.2
;TYPE:SKIRT
G1 F1500 E0
G1 F1800 X86.737 Y77.359 E0.01369
G1 X87.143 Y76.92 E0.03855
G1 X87.429 Y76.621 E0.05575
G1 X87.647 Y76.402 E0.0686
G1 X87.886 Y76.169 E0.08248
G1 X88.204 Y75.868 E0.10068
G1 X88.506 Y75.592 E0.11769
G1 X88.939 Y75.211 E0.14167
G1 X89.225 Y74.968 E0.15727
G1 X89.394 Y74.829 E0.16637
G1 X89.68 Y74.602 E0.18155
G1 X90.183 Y74.215 E0.20794
G1 X90.501 Y73.979 E0.2244
G1 X90.785 Y73.776 E0.23891
G1 X91.093 Y73.563 E0.25448
G1 X91.41 Y73.352 E0.27031
G1 X91.719 Y73.154 E0.28557
G1 X92.2 Y72.856 E0.3091
G1 X92.537 Y72.655 E0.32541
G1 X92.862 Y72.469 E0.34098
G1 X93.181 Y72.293 E0.35613
G1 X93.53 Y72.108 E0.37255
G1 X93.86 Y71.94 E0.38794
G1 X94.3 Y71.725 E0.4083
G1 X94.67 Y71.553 E0.42527
G1 X95.048 Y71.385 E0.44246
G1 X95.367 Y71.248 E0.4569
G1 X95.769 Y71.084 E0.47495
G1 X96.105 Y70.954 E0.48993
G1 X96.52 Y70.8 E0.50833
G1 X96.921 Y70.66 E0.52599
G1 X97.356 Y70.517 E0.54503
G1 X97.719 Y70.404 E0.56083
G1 X98.127 Y70.285 E0.5785
G1 X98.451 Y70.196 E0.59247
G1 X98.817 Y70.101 E0.60819
G1 X99.209 Y70.006 E0.62496
G1 X99.755 Y69.885 E0.64821
G1 X100.13 Y69.809 E0.66412
G1 X100.463 Y69.747 E0.6782
G1 X100.828 Y69.685 E0.69359
G1 X101.235 Y69.623 E0.71071
G1 X101.605 Y69.573 E0.72623
G1 X102.103 Y69.514 E0.74708
G1 X102.475 Y69.476 E0.76263
G1 X102.946 Y69.436 E0.78228
G1 X103.348 Y69.409 E0.79903
G1 X103.695 Y69.392 E0.81348
G1 X104.055 Y69.381 E0.82845
G1 X104.529 Y69.373 E0.84816
G1 X104.909 Y69.373 E0.86396
G1 X105.382 Y69.381 E0.88363
G1 X105.744 Y69.393 E0.89868
G1 X106.09 Y69.41 E0.91309
G1 X106.488 Y69.436 E0.92967
G1 X106.96 Y69.476 E0.94936
G1 X107.334 Y69.514 E0.96499
G1 X107.832 Y69.573 E0.98584
G1 X108.202 Y69.623 E1.00136
G1 X108.609 Y69.685 E1.01848
G1 X108.974 Y69.747 E1.03387
G1 X109.307 Y69.809 E1.04795
G1 X109.682 Y69.885 E1.06386
G1 X110.228 Y70.006 E1.08711
G1 X110.641 Y70.106 E1.10478
G1 X111.008 Y70.202 E1.12055
G1 X111.294 Y70.281 E1.13289
G1 X111.701 Y70.399 E1.15051
G1 X112.103 Y70.524 E1.16801
G1 X112.538 Y70.668 E1.18706
G1 X112.895 Y70.793 E1.20278
G1 X113.31 Y70.946 E1.22117
G1 X113.636 Y71.072 E1.2357
G1 X114.039 Y71.235 E1.25378
G1 X114.423 Y71.398 E1.27112
G1 X114.8 Y71.567 E1.2883
G1 X115.137 Y71.725 E1.30377
G1 X115.577 Y71.94 E1.32413
G1 X115.907 Y72.108 E1.33953
G1 X116.256 Y72.293 E1.35595
G1 X116.588 Y72.476 E1.37171
G1 X116.912 Y72.662 E1.38724
G1 X117.227 Y72.85 E1.40249
G1 X117.709 Y73.148 E1.42605
G1 X118.02 Y73.347 E1.4414
G1 X118.336 Y73.557 E1.45718
G1 X118.663 Y73.783 E1.4737
G1 X118.956 Y73.993 E1.48869
G1 X121.432 Y75.844 E1.61722
G1 X123.492 Y77.293 E1.72193
G1 X125.601 Y78.689 E1.82708
G1 X127.707 Y80.001 E1.93024
G1 X129.888 Y81.273 E2.03521
G1 X132.091 Y82.477 E2.13958
G1 X134.31 Y83.609 E2.24315
G1 X135.315 Y84.084 E2.28936
G1 X135.546 Y84.205 E2.3002
G1 X137.502 Y85.141 E2.39036
G1 X138.317 Y85.572 E2.42869
G1 X139.097 Y86.027 E2.46623
G1 X139.887 Y86.534 E2.50526
G1 X140.399 Y86.893 E2.53125
G1 X140.764 Y87.16 E2.55006
G1 X141.148 Y87.453 E2.57014
G1 X141.493 Y87.727 E2.58845
G1 X141.851 Y88.023 E2.60777
G1 X142.223 Y88.344 E2.62819
G1 X142.595 Y88.68 E2.64904
G1 X142.903 Y88.97 E2.66662
G1 X143.133 Y89.194 E2.67997
G1 X143.464 Y89.53 E2.69958
G1 X143.853 Y89.942 E2.72314
G1 X144.179 Y90.302 E2.74333
G1 X144.443 Y90.607 E2.7601
G1 X144.74 Y90.965 E2.77944
G1 X145.005 Y91.298 E2.79713
G1 X145.274 Y91.65 E2.81555
G1 X145.593 Y92.085 E2.83798
G1 X145.835 Y92.428 E2.85543
G1 X146.022 Y92.704 E2.86929
G1 X146.293 Y93.125 E2.89011
G1 X146.532 Y93.514 E2.90909
G1 X146.756 Y93.895 E2.92746
G1 X146.998 Y94.326 E2.94801
G1 X147.218 Y94.737 E2.9674
G1 X147.435 Y95.164 E2.98731
G1 X147.644 Y95.598 E3.00734
G1 X147.828 Y96.002 E3.02579
G1 X147.989 Y96.372 E3.04257
G1 X148.124 Y96.699 E3.05728
G1 X148.307 Y97.172 E3.07836
G1 X148.503 Y97.715 E3.10236
G1 X148.656 Y98.17 E3.12232
G1 X148.756 Y98.489 E3.13622
G1 X148.879 Y98.909 E3.15441
G1 X149.013 Y99.403 E3.17569
G1 X149.124 Y99.851 E3.19488
G1 X149.226 Y100.299 E3.21399
G1 X149.312 Y100.711 E3.23148
G1 X149.388 Y101.114 E3.24853
G1 X149.469 Y101.604 E3.26918
G1 X149.53 Y102.03 E3.28707
G1 X149.585 Y102.478 E3.30584
G1 X149.646 Y103.073 E3.33071
G1 X149.682 Y103.509 E3.34889
G1 X149.696 Y103.73 E3.3581
G1 X149.717 Y104.221 E3.37853
G1 X149.728 Y104.784 E3.40194
G1 X149.728 Y105.224 E3.42024
G1 X149.717 Y105.786 E3.44361
G1 X149.696 Y106.28 E3.46416
G1 X149.682 Y106.5 E3.47333
G1 X149.648 Y106.921 E3.49089
G1 X149.59 Y107.493 E3.51479
G1 X149.53 Y107.978 E3.53511
G1 X149.467 Y108.411 E3.5533
G1 X149.395 Y108.844 E3.57155
G1 X149.305 Y109.329 E3.59206
G1 X149.215 Y109.764 E3.61053
G1 X149.137 Y110.108 E3.62519
G1 X149.013 Y110.606 E3.64653
G1 X148.866 Y111.14 E3.66956
G1 X148.748 Y111.538 E3.68681
G1 X148.648 Y111.855 E3.70063
G1 X148.502 Y112.287 E3.71959
G1 X148.233 Y113.033 E3.75256
G1 X147.869 Y113.921 E3.79246
G1 X147.527 Y114.664 E3.82647
G1 X147.108 Y115.485 E3.86479
G1 X146.768 Y116.088 E3.89357
G1 X146.539 Y116.475 E3.91227
G1 X146.287 Y116.883 E3.9322
G1 X146.053 Y117.247 E3.95019
G1 X145.809 Y117.61 E3.96838
G1 X145.542 Y117.99 E3.98769
G1 X145.145 Y118.531 E4.01558
G1 X144.557 Y119.265 E4.05468
G1 X144.185 Y119.692 E4.07823
G1 X143.896 Y120.011 E4.09613
G1 X143.498 Y120.434 E4.12027
G1 X143.145 Y120.793 E4.1412
G1 X142.827 Y121.102 E4.15964
G1 X142.499 Y121.408 E4.17829
G1 X142.227 Y121.652 E4.19348
G1 X141.899 Y121.936 E4.21152
G1 X141.482 Y122.282 E4.23405
G1 X141.116 Y122.573 E4.25349
G1 X140.801 Y122.813 E4.26995
G1 X140.425 Y123.087 E4.28929
G1 X140.037 Y123.358 E4.30897
G1 X139.666 Y123.606 E4.32752
G1 X139.276 Y123.856 E4.34678
G1 X138.861 Y124.11 E4.36701
G1 X138.273 Y124.452 E4.39529
G1 X137.453 Y124.885 E4.43384
G1 X136.972 Y125.114 E4.45599
G1 X136.572 Y125.294 E4.47423
G1 X136.015 Y125.533 E4.49943
G1 X135.591 Y125.705 E4.51845
G1 X134.999 Y125.931 E4.5448
G1 X134.137 Y126.221 E4.58261
G1 X133.29 Y126.468 E4.61929
G1 X132.406 Y126.688 E4.65716
G1 X131.798 Y126.813 E4.68297
G1 X131.32 Y126.9 E4.70317
G1 X130.848 Y126.976 E4.72304
G1 X130.404 Y127.038 E4.74168
G1 X129.897 Y127.099 E4.76291
G1 X129.44 Y127.145 E4.78201
G1 X129.01 Y127.179 E4.79994
G1 X128.547 Y127.206 E4.81922
G1 X128.149 Y127.221 E4.83578
G1 X127.681 Y127.229 E4.85524
G1 X127.167 Y127.227 E4.87661
G1 X126.704 Y127.216 E4.89587
G1 X126.261 Y127.196 E4.9143
G1 X125.829 Y127.168 E4.9323
G1 X125.411 Y127.133 E4.94974
G1 X124.941 Y127.083 E4.96939
G1 X124.252 Y126.996 E4.99826
G1 X123.339 Y126.843 E5.03675
G1 X122.718 Y126.712 E5.06314
G1 X122.242 Y126.601 E5.08346
G1 X121.798 Y126.487 E5.10252
G1 X121.399 Y126.376 E5.11974
G1 X120.714 Y126.173 E5.14944
G1 X119.833 Y125.872 E5.18815
G1 X119.036 Y125.562 E5.2237
G1 X118.179 Y125.187 E5.26259
G1 X117.591 Y124.9 E5.28979
G1 X117.195 Y124.697 E5.30829
G1 X116.584 Y124.368 E5.33715
G1 X114.255 Y123.155 E5.44632
G1 X112.027 Y122.073 E5.54929
G1 X109.74 Y121.042 E5.65359
G1 X107.435 Y120.08 E5.75743
G1 X105.042 Y119.158 E5.86405
G1 X102.683 Y118.329 E5.96801
G1 X100.326 Y117.573 E6.07092
G1 X98.022 Y116.904 E6.17066
G1 X97.795 Y116.836 E6.18052
G1 X97.281 Y116.675 E6.20291
G1 X96.951 Y116.566 E6.21736
G1 X96.505 Y116.411 E6.23699
G1 X96.132 Y116.274 E6.25351
G1 X95.794 Y116.143 E6.26858
G1 X95.462 Y116.008 E6.28348
G1 X95.05 Y115.833 E6.30209
G1 X94.668 Y115.662 E6.31949
G1 X94.178 Y115.432 E6.342
G1 X93.88 Y115.287 E6.35577
G1 X93.625 Y115.158 E6.36765
G1 X93.292 Y114.982 E6.38331
G1 X92.798 Y114.711 E6.40674
G1 X92.426 Y114.498 E6.42456
G1 X92.169 Y114.344 E6.43702
G1 X91.868 Y114.157 E6.45175
G1 X91.319 Y113.804 E6.47889
G1 X90.966 Y113.567 E6.49656
G1 X90.751 Y113.417 E6.50746
G1 X90.5 Y113.237 E6.5203
G1 X90.17 Y112.993 E6.53737
G1 X89.862 Y112.757 E6.5535
G1 X89.425 Y112.41 E6.5767
G1 X89.11 Y112.151 E6.59365
G1 X88.841 Y111.921 E6.60837
G1 X88.569 Y111.68 E6.62348
G1 X88.203 Y111.346 E6.64408
G1 X87.949 Y111.107 E6.65858
G1 X87.708 Y110.873 E6.67254
G1 X87.411 Y110.574 E6.69006
G1 X87.003 Y110.147 E6.71462
G1 X86.761 Y109.885 E6.72944
G1 X86.527 Y109.624 E6.74402
G1 X86.286 Y109.346 E6.75931
G1 X86.051 Y109.066 E6.77451
G1 X85.812 Y108.771 E6.7903
G1 X85.465 Y108.328 E6.81369
G1 X85.225 Y108.011 E6.83022
G1 X84.995 Y107.695 E6.84647
G1 X84.782 Y107.393 E6.86184
G1 X84.556 Y107.06 E6.87857
G1 X84.347 Y106.739 E6.89449
G1 X84.083 Y106.32 E6.91508
G1 X83.882 Y105.99 E6.93115
G1 X83.696 Y105.671 E6.9465
G1 X83.524 Y105.364 E6.96113
G1 X83.317 Y104.982 E6.97919
G1 X83.146 Y104.653 E6.99461
G1 X82.94 Y104.241 E7.01376
G1 X82.76 Y103.865 E7.03109
G1 X82.525 Y103.348 E7.0547
G1 X82.372 Y102.994 E7.07073
G1 X82.3 Y102.82 E7.07856
G1 X82.173 Y102.501 E7.09284
G1 X81.941 Y101.888 E7.12009
G1 X81.817 Y101.541 E7.13541
G1 X81.733 Y101.295 E7.14622
G1 X81.609 Y100.912 E7.16295
G1 X81.426 Y100.306 E7.18927
G1 X81.334 Y99.982 E7.20327
G1 X81.272 Y99.752 E7.21318
G1 X81.172 Y99.354 E7.23024
G1 X81.058 Y98.86 E7.25132
G1 X80.978 Y98.483 E7.26734
G1 X80.877 Y97.965 E7.28928
G1 X80.81 Y97.591 E7.30508
G1 X80.753 Y97.235 E7.32007
G1 X80.703 Y96.884 E7.33481
G1 X80.655 Y96.509 E7.35052
G1 X80.611 Y96.11 E7.36721
G1 X80.566 Y95.62 E7.38767
G1 X80.538 Y95.246 E7.40326
G1 X80.508 Y94.732 E7.42467
G1 X80.492 Y94.348 E7.44065
G1 X80.485 Y94.057 E7.45275
G1 X80.482 Y93.699 E7.46764
G1 X80.486 Y93.181 E7.48917
G1 X80.496 Y92.804 E7.50485
G1 X80.515 Y92.344 E7.52399
G1 X80.538 Y91.95 E7.5404
G1 X80.566 Y91.584 E7.55566
G1 X80.601 Y91.21 E7.57128
G1 X80.655 Y90.72 E7.59177
G1 X80.699 Y90.365 E7.60665
G1 X80.75 Y90.007 E7.62168
G1 X80.814 Y89.611 E7.63836
G1 X80.908 Y89.086 E7.66053
G1 X80.973 Y88.753 E7.67464
G1 X81.046 Y88.406 E7.68938
G1 X81.143 Y87.984 E7.70738
G1 X81.277 Y87.45 E7.73027
G1 X81.37 Y87.103 E7.74521
G1 X81.441 Y86.854 E7.75597
G1 X81.547 Y86.506 E7.7711
G1 X81.738 Y85.91 E7.79712
G1 X81.849 Y85.58 E7.81159
G1 X81.942 Y85.318 E7.82315
G1 X82.092 Y84.918 E7.84091
G1 X82.276 Y84.456 E7.86159
G1 X82.421 Y84.11 E7.87718
G1 X82.638 Y83.614 E7.89969
G1 X82.794 Y83.273 E7.91528
G1 X82.891 Y83.07 E7.92464
G1 X83.052 Y82.747 E7.93964
G1 X83.313 Y82.243 E7.96324
G1 X83.502 Y81.893 E7.97977
G1 X83.737 Y81.476 E7.99967
G1 X83.939 Y81.131 E8.0163
G1 X84.101 Y80.866 E8.02921
G1 X84.275 Y80.591 E8.04274
G1 X84.567 Y80.143 E8.06497
G1 X84.785 Y79.821 E8.08114
G1 X85.002 Y79.512 E8.09684
G1 X85.232 Y79.197 E8.11305
G1 X85.519 Y78.817 E8.13285
G1 X85.742 Y78.53 E8.14796
G1 X86.031 Y78.172 E8.16709
G1 X86.306 Y77.846 E8.18482
G1 X86.517 Y77.604 E8.19817
G0 F9000 X86.893 Y77.932
G1 F1800 X87.104 Y77.698 E8.21127
G1 X87.51 Y77.259 E8.23613
G1 X87.783 Y76.974 E8.25254
G1 X88.001 Y76.755 E8.26538
G1 X88.23 Y76.532 E8.27867
G1 X88.548 Y76.231 E8.29688
G1 X88.837 Y75.967 E8.31315
G1 X89.27 Y75.586 E8.33713
G1 X89.542 Y75.354 E8.35199
G1 X89.711 Y75.215 E8.36109
G1 X89.985 Y74.998 E8.37562
G1 X90.488 Y74.611 E8.40201
G1 X90.792 Y74.385 E8.41776
G1 X91.076 Y74.182 E8.43227
G1 X91.37 Y73.979 E8.44712
G1 X91.687 Y73.768 E8.46296
G1 X91.982 Y73.579 E8.47752
G1 X92.463 Y73.281 E8.50105
G1 X92.785 Y73.089 E8.51663
G1 X93.11 Y72.903 E8.5322
G1 X93.415 Y72.735 E8.54668
G1 X93.764 Y72.55 E8.5631
G1 X94.079 Y72.389 E8.57781
G1 X94.519 Y72.174 E8.59817
G1 X94.873 Y72.01 E8.61439
G1 X95.251 Y71.842 E8.63159
G1 X95.556 Y71.711 E8.64539
G1 X95.958 Y71.547 E8.66344
G1 X96.279 Y71.423 E8.67774
G1 X96.694 Y71.269 E8.69615
G1 X97.077 Y71.135 E8.71302
G1 X97.512 Y70.992 E8.73205
G1 X97.859 Y70.884 E8.74716
G1 X98.267 Y70.765 E8.76483
G1 X98.576 Y70.68 E8.77816
G1 X98.942 Y70.585 E8.79388
G1 X99.317 Y70.495 E8.80991
G1 X99.863 Y70.374 E8.83316
G1 X100.221 Y70.301 E8.84835
G1 X100.554 Y70.239 E8.86243
G1 X100.903 Y70.18 E8.87715
G1 X101.31 Y70.118 E8.89427
G1 X101.664 Y70.07 E8.90912
G1 X102.162 Y70.011 E8.92997
G1 X102.517 Y69.975 E8.9448
G1 X102.988 Y69.935 E8.96445
G1 X103.372 Y69.909 E8.98046
G1 X103.719 Y69.892 E8.9949
G1 X104.064 Y69.881 E9.00925
G1 X104.538 Y69.873 E9.02896
G1 X104.901 Y69.873 E9.04405
G1 X105.374 Y69.881 E9.06372
G1 X105.72 Y69.892 E9.07811
G1 X106.066 Y69.909 E9.09251
G1 X106.446 Y69.934 E9.10835
G1 X106.918 Y69.974 E9.12804
G1 X107.275 Y70.011 E9.14296
G1 X107.773 Y70.07 E9.16381
G1 X108.127 Y70.118 E9.17866
G1 X108.534 Y70.18 E9.19578
G1 X108.883 Y70.239 E9.2105
G1 X109.216 Y70.301 E9.22458
G1 X109.574 Y70.374 E9.23977
G1 X110.12 Y70.495 E9.26302
G1 X110.514 Y70.59 E9.27987
G1 X110.881 Y70.686 E9.29564
G1 X111.154 Y70.761 E9.30741
G1 X111.561 Y70.879 E9.32503
G1 X111.946 Y70.999 E9.3418
G1 X112.381 Y71.143 E9.36085
G1 X112.722 Y71.262 E9.37586
G1 X113.137 Y71.415 E9.39425
G1 X113.449 Y71.535 E9.40815
G1 X113.852 Y71.698 E9.42622
G1 X114.218 Y71.855 E9.44278
G1 X114.595 Y72.024 E9.45996
G1 X114.918 Y72.174 E9.47476
G1 X115.358 Y72.389 E9.49512
G1 X115.673 Y72.55 E9.50983
G1 X116.022 Y72.735 E9.52625
G1 X116.339 Y72.91 E9.54131
G1 X116.663 Y73.096 E9.55684
G1 X116.964 Y73.275 E9.5714
G1 X117.446 Y73.573 E9.59496
G1 X117.743 Y73.764 E9.60964
G1 X118.059 Y73.974 E9.62541
G1 X118.371 Y74.189 E9.64117
G1 X118.664 Y74.399 E9.65615
G1 X121.163 Y76.266 E9.78584
G1 X123.205 Y77.703 E9.88965
G1 X125.313 Y79.098 E9.99475
G1 X127.468 Y80.44 E10.10029
G1 X129.648 Y81.712 E10.20523
G1 X131.848 Y82.915 E10.30947
G1 X134.092 Y84.059 E10.41419
G1 X135.101 Y84.536 E10.46059
G1 X135.315 Y84.649 E10.47066
G1 X137.287 Y85.592 E10.56153
G1 X138.065 Y86.004 E10.59813
G1 X138.845 Y86.459 E10.63568
G1 X139.6 Y86.943 E10.67296
G1 X140.112 Y87.302 E10.69896
G1 X140.461 Y87.558 E10.71696
G1 X140.845 Y87.851 E10.73704
G1 X141.174 Y88.112 E10.7545
G1 X141.532 Y88.408 E10.77381
G1 X141.888 Y88.715 E10.79335
G1 X142.26 Y89.051 E10.81419
G1 X142.554 Y89.328 E10.83099
G1 X142.784 Y89.552 E10.84434
G1 X143.1 Y89.873 E10.86306
G1 X143.489 Y90.285 E10.88662
G1 X143.801 Y90.63 E10.90596
G1 X144.065 Y90.935 E10.92273
G1 X144.349 Y91.276 E10.94118
G1 X144.614 Y91.609 E10.95887
G1 X144.871 Y91.946 E10.97649
G1 X145.19 Y92.381 E10.99892
G1 X145.421 Y92.708 E11.01557
G1 X145.608 Y92.984 E11.02943
G1 X145.867 Y93.387 E11.04934
G1 X146.106 Y93.776 E11.06832
G1 X146.32 Y94.14 E11.08588
G1 X146.562 Y94.571 E11.10643
G1 X146.772 Y94.964 E11.12495
G1 X146.989 Y95.391 E11.14487
G1 X147.189 Y95.805 E11.16398
G1 X147.373 Y96.209 E11.18244
G1 X147.527 Y96.563 E11.19849
G1 X147.662 Y96.89 E11.2132
G1 X147.836 Y97.342 E11.23333
G1 X148.032 Y97.885 E11.25734
G1 X148.179 Y98.319 E11.27639
G1 X148.279 Y98.638 E11.29028
G1 X148.396 Y99.04 E11.30769
G1 X148.53 Y99.534 E11.32897
G1 X148.637 Y99.962 E11.34731
G1 X148.739 Y100.41 E11.36642
G1 X148.821 Y100.804 E11.38315
G1 X148.897 Y101.207 E11.4002
G1 X148.974 Y101.675 E11.41992
G1 X149.035 Y102.101 E11.43781
G1 X149.088 Y102.529 E11.45574
G1 X149.149 Y103.124 E11.4806
G1 X149.183 Y103.54 E11.49796
G1 X149.197 Y103.761 E11.50716
G1 X149.217 Y104.231 E11.52672
G1 X149.228 Y104.794 E11.55013
G1 X149.228 Y105.214 E11.5676
G1 X149.217 Y105.776 E11.59096
G1 X149.197 Y106.249 E11.61065
G1 X149.183 Y106.469 E11.61981
G1 X149.15 Y106.87 E11.63654
G1 X149.092 Y107.442 E11.66044
G1 X149.035 Y107.906 E11.67988
G1 X148.972 Y108.339 E11.69807
G1 X148.904 Y108.752 E11.71547
G1 X148.814 Y109.237 E11.73598
G1 X148.728 Y109.653 E11.75364
G1 X148.65 Y109.997 E11.76831
G1 X148.53 Y110.473 E11.78872
G1 X148.383 Y111.007 E11.81174
G1 X148.271 Y111.388 E11.82825
G1 X148.171 Y111.705 E11.84207
G1 X148.032 Y112.118 E11.86019
G1 X147.763 Y112.864 E11.89316
G1 X147.415 Y113.712 E11.93127
G1 X147.073 Y114.455 E11.96527
